;Generated by Cura LulzBot Edition GCodeWriter Version: 2.6.66
;FLAVOR:RepRap
;TIME:1904
;Filament used: 0.569908m
;Layer height: 0.385
;Generated with Cura_SteamEngine 2.6.66
;This G-Code has been generated specifically for the LulzBot TAZ 5 with standard extruder
M140 S110    ; start bed heating up
G21                      ; set units to Millimetres
G90                      ; absolute positioning
M107                     ; disable fans
M82                      ; set extruder to absolute mode
G28 X0 Y0                ; home X and Y
G28 Z0                   ; home Z
G1 Z15.0 F{travel_speed} ; move extruder up
M117 Heating...                     ; progress indicator message on LCD
M109 R240  ; wait for extruder to reach printing temp
M190 S110    ; wait for bed to reach printing temp
G92 E0                   ; set extruder position to 0
G1 F200 E0               ; prime the nozzle with filament
G92 E0                   ; re-set extruder position to 0
G1 F{travel_speed}       ; set travel speed
M203 X192 Y208 Z3        ; set limits on travel speed
M117 TAZ 5 Printing...   ; progress indicator message on LCD

M221 S100
;LAYER_COUNT:14
;LAYER:0
M107
M205 X12
G0 F600 X121.646 Y116.052 Z0.385
;TYPE:SKIRT
G1 X122.154 Y115.618 E0.01552
G1 X122.97 Y115.107 E0.03789
G1 X123.321 Y114.927 E0.04706
G1 X123.932 Y114.658 E0.06257
G1 X124.571 Y114.464 E0.07809
G1 X125.229 Y114.349 E0.09361
G1 X125.868 Y114.312 E0.10848
G1 X160.255 Y114.326 E0.90746
G1 X160.922 Y114.366 E0.92299
G1 X161.579 Y114.486 E0.9385
G1 X162.217 Y114.683 E0.95402
G1 X162.826 Y114.955 E0.96952
G1 X163.399 Y115.298 E0.98503
G1 X163.714 Y115.529 E0.99411
G1 X164.03 Y115.779 E1.00347
G1 X164.528 Y116.224 E1.01899
G1 X164.969 Y116.726 E1.03451
G1 X165.347 Y117.276 E1.05002
G1 X165.657 Y117.867 E1.06553
G1 X165.894 Y118.492 E1.08106
G1 X166.054 Y119.14 E1.09657
G1 X166.143 Y119.932 E1.11508
G1 X166.188 Y121.06 E1.14131
G1 X166.174 Y121.727 E1.15681
G1 X166.132 Y122.101 E1.16556
G1 X165.737 Y124.763 E1.22809
G1 X165.165 Y130.13 E1.3535
G1 X164.9 Y135.448 E1.47721
G1 X164.937 Y140.792 E1.60138
G1 X165.275 Y146.121 E1.72545
G1 X166.143 Y153.03 E1.88724
G1 X166.187 Y153.731 E1.90356
G1 X166.186 Y154.731 E1.9268
G1 X166.145 Y155.397 E1.9423
G1 X166.025 Y156.054 E1.95782
G1 X165.828 Y156.692 E1.97333
G1 X165.633 Y157.146 E1.98482
G1 X165.54 Y157.339 E1.98979
G1 X165.215 Y157.922 E2.0053
G1 X164.822 Y158.463 E2.02084
G1 X164.368 Y158.952 E2.03634
G1 X163.686 Y159.507 E2.05677
G1 X163.453 Y159.668 E2.06335
G1 X162.882 Y160.014 E2.07887
G1 X162.274 Y160.289 E2.09437
G1 X161.637 Y160.49 E2.10989
G1 X160.98 Y160.613 E2.12542
G1 X160.285 Y160.657 E2.1416
G1 X125.834 Y160.674 E2.94207
G1 X125.167 Y160.634 E2.95759
G1 X124.51 Y160.515 E2.97311
G1 X123.872 Y160.319 E2.98862
G1 X123.558 Y160.19 E2.9965
G1 X123.298 Y160.074 E3.00312
G1 X122.706 Y159.766 E3.01862
G1 X122.155 Y159.389 E3.03414
G1 X121.652 Y158.949 E3.04966
G1 X121.109 Y158.327 E3.06885
G1 X120.995 Y158.175 E3.07326
G1 X120.627 Y157.618 E3.08877
G1 X120.328 Y157.02 E3.10431
G1 X120.103 Y156.392 E3.11981
G1 X119.954 Y155.741 E3.13533
G1 X119.882 Y155.022 E3.15212
G1 X119.842 Y153.872 E3.17885
G1 X119.889 Y152.931 E3.20074
G1 X120.62 Y147.527 E3.32745
G1 X121.034 Y142.213 E3.45129
G1 X121.15 Y136.869 E3.57549
G1 X120.962 Y131.529 E3.69964
G1 X120.468 Y126.165 E3.8248
G1 X120.17 Y123.957 E3.87657
G1 X119.899 Y122.05 E3.92132
G1 X119.843 Y121.258 E3.93977
G1 X119.844 Y120.259 E3.96298
G1 X119.885 Y119.593 E3.97849
G1 X120.005 Y118.936 E3.994
G1 X120.202 Y118.298 E4.00952
G1 X120.387 Y117.864 E4.02048
G1 X120.48 Y117.669 E4.0255
G1 X120.803 Y117.084 E4.04103
G1 X121.194 Y116.543 E4.05654
G1 X121.646 Y116.052 E4.07204
G1 F480 E3.57204
G0 F600 X121.962 Y116.282
G1 F480 E4.07204
G1 F600 X122.459 Y115.872 E4.08701
G1 X123.145 Y115.449 E4.10574
G1 X123.496 Y115.269 E4.1149
G1 X124.087 Y115.011 E4.12989
G1 X124.704 Y114.829 E4.14483
G1 X125.34 Y114.724 E4.15981
G1 X125.868 Y114.697 E4.1721
G1 X160.255 Y114.711 E4.97108
G1 X160.898 Y114.751 E4.98605
G1 X161.531 Y114.871 E5.00102
G1 X162.145 Y115.068 E5.016
G1 X162.729 Y115.339 E5.03096
G1 X163.475 Y115.831 E5.05172
G1 X163.791 Y116.081 E5.06108
G1 X164.27 Y116.512 E5.07605
G1 X164.693 Y116.998 E5.09102
G1 X165.052 Y117.533 E5.10599
G1 X165.342 Y118.108 E5.12096
G1 X165.559 Y118.715 E5.13594
G1 X165.698 Y119.344 E5.1509
G1 X165.758 Y119.947 E5.16498
G1 X165.803 Y121.075 E5.19121
G1 X165.789 Y121.719 E5.20618
G1 X165.751 Y122.044 E5.21378
G1 X165.355 Y124.713 E5.27648
G1 X164.782 Y130.087 E5.40205
G1 X164.515 Y135.449 E5.52679
G1 X164.552 Y140.801 E5.65114
G1 X164.892 Y146.161 E5.77593
G1 X165.761 Y153.078 E5.93791
G1 X165.802 Y153.73 E5.95309
G1 X165.801 Y154.73 E5.97633
G1 X165.76 Y155.373 E5.9913
G1 X165.64 Y156.006 E6.00627
G1 X165.443 Y156.619 E6.02123
G1 X165.286 Y156.979 E6.03035
G1 X165.193 Y157.172 E6.03533
G1 X164.878 Y157.734 E6.0503
G1 X164.496 Y158.253 E6.06527
G1 X164.052 Y158.72 E6.08025
G1 X163.467 Y159.19 E6.09768
G1 X163.234 Y159.351 E6.10426
G1 X162.682 Y159.684 E6.11924
G1 X162.094 Y159.946 E6.1342
G1 X161.477 Y160.133 E6.14918
G1 X160.842 Y160.242 E6.16415
G1 X160.285 Y160.272 E6.17711
G1 X125.834 Y160.289 E6.97758
G1 X125.191 Y160.249 E6.99255
G1 X124.557 Y160.13 E7.00753
G1 X123.715 Y159.838 E7.02824
G1 X123.455 Y159.722 E7.03486
G1 X122.884 Y159.424 E7.04982
G1 X122.355 Y159.057 E7.06478
G1 X121.875 Y158.627 E7.07975
G1 X121.417 Y158.096 E7.09605
G1 X121.303 Y157.944 E7.10046
G1 X120.949 Y157.405 E7.11544
G1 X120.664 Y156.827 E7.13042
G1 X120.454 Y156.219 E7.14536
G1 X120.32 Y155.588 E7.16035
G1 X120.267 Y155.009 E7.17386
G1 X120.227 Y153.859 E7.2006
G1 X120.271 Y152.982 E7.221
G1 X121.003 Y147.572 E7.34785
G1 X121.419 Y142.233 E7.47227
G1 X121.535 Y136.864 E7.59705
G1 X121.346 Y131.498 E7.72181
G1 X120.852 Y126.126 E7.84715
G1 X120.552 Y123.906 E7.8992
G1 X120.28 Y121.995 E7.94405
G1 X120.228 Y121.259 E7.9612
G1 X120.229 Y120.26 E7.98441
G1 X120.27 Y119.617 E7.99938
G1 X120.39 Y118.984 E8.01435
G1 X120.587 Y118.371 E8.02931
G1 X120.735 Y118.03 E8.03795
G1 X120.828 Y117.835 E8.04297
G1 X121.141 Y117.271 E8.05795
G1 X121.521 Y116.751 E8.07292
G1 X121.962 Y116.282 E8.08788
G1 F480 E7.58788
G0 F600 X127.182 Y121.715
;TYPE:WALL-INNER
G1 F480 E8.08788
G1 F300 X126.891 Y121.224 E8.10114
G1 X159.139 Y121.228 E8.85042
G1 X158.741 Y121.898 E8.86852
G1 X158.442 Y122.437 E8.88285
G1 X158.159 Y122.973 E8.89693
G1 X157.886 Y123.514 E8.91101
G1 X157.621 Y124.062 E8.92515
G1 X157.367 Y124.616 E8.93931
G1 X157.124 Y125.174 E8.95345
G1 X156.71 Y126.211 E8.9794
G1 X156.55 Y125.797 E8.98971
G1 X156.438 Y125.568 E8.99563
G1 X156.309 Y125.346 E9.0016
G1 X156.063 Y125.003 E9.01141
G1 X155.882 Y124.793 E9.01785
G1 X155.569 Y124.496 E9.02787
G1 X155.349 Y124.326 E9.03433
G1 X154.995 Y124.102 E9.04407
G1 X154.768 Y123.984 E9.05001
G1 X154.547 Y123.89 E9.05559
G1 X154.328 Y123.813 E9.06099
G1 X154.102 Y123.748 E9.06645
G1 X153.873 Y123.699 E9.07189
G1 X153.64 Y123.663 E9.07737
G1 X153.407 Y123.644 E9.0828
G1 X153.154 Y123.64 E9.08868
G1 X152.727 Y123.67 E9.09863
G1 X152.454 Y123.719 E9.10507
G1 X152.046 Y123.831 E9.1149
G1 X151.784 Y123.93 E9.12141
G1 X151.406 Y124.118 E9.13122
G1 X151.17 Y124.263 E9.13765
G1 X150.81 Y124.537 E9.14817
G1 X150.479 Y124.867 E9.15903
G1 X150.194 Y125.233 E9.1698
G1 X149.965 Y125.621 E9.18027
G1 X149.846 Y125.872 E9.18673
G1 X149.705 Y126.269 E9.19651
G1 X149.64 Y126.521 E9.20256
G1 X149.6 Y126.759 E9.20817
G1 X149.573 Y126.985 E9.21346
G1 X149.561 Y127.212 E9.21874
G1 X149.562 Y127.472 E9.22478
G1 X149.611 Y127.92 E9.23525
G1 X149.719 Y128.376 E9.24614
G1 X149.88 Y128.793 E9.25653
G1 X149.992 Y129.022 E9.26245
G1 X150.121 Y129.244 E9.26841
G1 X150.367 Y129.587 E9.27822
G1 X150.548 Y129.797 E9.28466
G1 X150.876 Y130.108 E9.29517
G1 X151.254 Y130.383 E9.30603
G1 X151.643 Y130.596 E9.31633
G1 X151.881 Y130.7 E9.32237
G1 X152.102 Y130.777 E9.3278
G1 X152.328 Y130.842 E9.33327
G1 X152.557 Y130.891 E9.33871
G1 X152.79 Y130.927 E9.34419
G1 X153.023 Y130.946 E9.34962
G1 X153.276 Y130.95 E9.3555
G1 X153.703 Y130.92 E9.36544
G1 X153.976 Y130.871 E9.37189
G1 X154.384 Y130.759 E9.38172
G1 X154.645 Y130.66 E9.38821
G1 X155.027 Y130.471 E9.39811
G1 X155.263 Y130.324 E9.40457
G1 X155.493 Y130.148 E9.4113
G1 X155.306 Y130.963 E9.43073
G1 X155.187 Y131.562 E9.44492
G1 X154.982 Y132.755 E9.47304
G1 X154.896 Y133.361 E9.48726
G1 X154.822 Y133.964 E9.50138
G1 X154.762 Y134.57 E9.51553
G1 X154.711 Y135.175 E9.52963
G1 X154.673 Y135.78 E9.54372
G1 X154.644 Y136.387 E9.55784
G1 X154.629 Y136.995 E9.57197
G1 X154.625 Y137.602 E9.58607
G1 X154.633 Y138.211 E9.60023
G1 X154.652 Y138.818 E9.61434
G1 X154.726 Y140.037 E9.64271
G1 X154.846 Y141.239 E9.67078
G1 X155.014 Y142.444 E9.69905
G1 X155.116 Y143.049 E9.7133
G1 X155.349 Y144.232 E9.74132
G1 X155.489 Y144.837 E9.75575
G1 X155.792 Y146.002 E9.78372
G1 X155.961 Y146.589 E9.79791
G1 X156.142 Y147.171 E9.81207
G1 X156.334 Y147.747 E9.82618
G1 X156.539 Y148.328 E9.84049
G1 X156.973 Y149.449 E9.86842
G1 X157.209 Y150.014 E9.88265
G1 X157.458 Y150.577 E9.89695
G1 X157.978 Y151.663 E9.92493
G1 X158.258 Y152.21 E9.93921
G1 X158.548 Y152.744 E9.95333
G1 X158.848 Y153.275 E9.9675
G1 X159.135 Y153.759 E9.98057
G1 X126.892 Y153.761 E10.72974
G1 X127.289 Y153.092 E10.74781
G1 X127.588 Y152.553 E10.76213
G1 X127.871 Y152.017 E10.77622
G1 X128.144 Y151.476 E10.7903
G1 X128.409 Y150.928 E10.80444
G1 X128.663 Y150.374 E10.8186
G1 X128.906 Y149.816 E10.83274
G1 X129.356 Y148.69 E10.86092
G1 X129.568 Y148.118 E10.87509
G1 X129.765 Y147.542 E10.88923
G1 X129.952 Y146.966 E10.90331
G1 X130.129 Y146.384 E10.91744
G1 X130.296 Y145.798 E10.9316
G1 X130.591 Y144.62 E10.95981
G1 X130.724 Y144.027 E10.97393
G1 X130.843 Y143.428 E10.98812
G1 X131.048 Y142.235 E11.01625
G1 X131.134 Y141.629 E11.03047
G1 X131.208 Y141.026 E11.04459
G1 X131.268 Y140.42 E11.05874
G1 X131.319 Y139.815 E11.07284
G1 X131.357 Y139.21 E11.08693
G1 X131.386 Y138.603 E11.10105
G1 X131.401 Y137.995 E11.11518
G1 X131.405 Y137.388 E11.12928
G1 X131.397 Y136.779 E11.14343
G1 X131.378 Y136.172 E11.15754
G1 X131.304 Y134.953 E11.18592
G1 X131.184 Y133.751 E11.21399
G1 X131.016 Y132.546 E11.24226
G1 X130.914 Y131.941 E11.25651
G1 X130.681 Y130.758 E11.28453
G1 X130.542 Y130.156 E11.29888
G1 X130.854 Y130.383 E11.30785
G1 X131.243 Y130.596 E11.31815
G1 X131.481 Y130.7 E11.32419
G1 X131.702 Y130.777 E11.32962
G1 X131.928 Y130.842 E11.33509
G1 X132.157 Y130.891 E11.34053
G1 X132.39 Y130.927 E11.34601
G1 X132.623 Y130.946 E11.35144
G1 X132.876 Y130.95 E11.35732
G1 X133.303 Y130.92 E11.36726
G1 X133.576 Y130.871 E11.37371
G1 X133.984 Y130.759 E11.38354
G1 X134.246 Y130.66 E11.39005
G1 X134.624 Y130.472 E11.39986
G1 X134.86 Y130.327 E11.40629
G1 X135.22 Y130.053 E11.4168
G1 X135.551 Y129.723 E11.42766
G1 X135.836 Y129.357 E11.43844
G1 X136.065 Y128.969 E11.44891
G1 X136.184 Y128.718 E11.45536
G1 X136.325 Y128.321 E11.46515
G1 X136.39 Y128.069 E11.4712
G1 X136.43 Y127.831 E11.47681
G1 X136.457 Y127.605 E11.4821
G1 X136.469 Y127.378 E11.48738
G1 X136.468 Y127.118 E11.49342
G1 X136.419 Y126.67 E11.50389
G1 X136.311 Y126.214 E11.51478
G1 X136.15 Y125.797 E11.52516
G1 X136.038 Y125.568 E11.53109
G1 X135.909 Y125.346 E11.53705
G1 X135.663 Y125.003 E11.54686
G1 X135.482 Y124.793 E11.5533
G1 X135.154 Y124.482 E11.5638
G1 X134.776 Y124.207 E11.57467
G1 X134.387 Y123.994 E11.58497
G1 X134.149 Y123.89 E11.59101
G1 X133.928 Y123.813 E11.59644
G1 X133.702 Y123.748 E11.60191
G1 X133.473 Y123.699 E11.60735
G1 X133.24 Y123.663 E11.61283
G1 X133.007 Y123.644 E11.61826
G1 X132.754 Y123.64 E11.62414
G1 X132.327 Y123.67 E11.63408
G1 X132.054 Y123.719 E11.64053
G1 X131.646 Y123.831 E11.65036
G1 X131.384 Y123.93 E11.65687
G1 X131.006 Y124.118 E11.66667
G1 X130.77 Y124.263 E11.67311
G1 X130.41 Y124.537 E11.68362
G1 X130.079 Y124.867 E11.69448
G1 X129.794 Y125.233 E11.70526
G1 X129.565 Y125.621 E11.71573
G1 X129.446 Y125.872 E11.72218
G1 X129.321 Y126.223 E11.73084
G1 X129.057 Y125.541 E11.74783
G1 X128.821 Y124.976 E11.76206
G1 X128.572 Y124.413 E11.77636
G1 X128.052 Y123.327 E11.80434
G1 X127.772 Y122.78 E11.81862
G1 X127.482 Y122.246 E11.83274
G1 X127.182 Y121.715 E11.84691
G1 F480 E11.34691
G0 F600 X126.849 Y121.908
G1 F480 E11.84691
G1 F300 X126.361 Y121.084 E11.86916
G1 X126.362 Y120.839 E11.87485
G1 X159.666 Y120.843 E12.64867
G1 X159.664 Y121.098 E12.65459
G1 X159.075 Y122.09 E12.6814
G1 X158.781 Y122.62 E12.69548
G1 X158.501 Y123.15 E12.70941
G1 X158.231 Y123.685 E12.72333
G1 X157.969 Y124.226 E12.7373
G1 X157.719 Y124.773 E12.75127
G1 X157.479 Y125.323 E12.76522
G1 X157.033 Y126.438 E12.79312
G1 X156.825 Y127.001 E12.80706
G1 X156.63 Y127.57 E12.82104
G1 X156.445 Y128.139 E12.83494
G1 X156.27 Y128.715 E12.84893
G1 X156.106 Y129.293 E12.86289
G1 X155.956 Y129.873 E12.87681
G1 X155.814 Y130.457 E12.89077
G1 X155.683 Y131.043 E12.90472
G1 X155.566 Y131.632 E12.91868
G1 X155.362 Y132.815 E12.94657
G1 X155.278 Y133.411 E12.96055
G1 X155.205 Y134.007 E12.97451
G1 X155.145 Y134.605 E12.98847
G1 X155.095 Y135.203 E13.00241
G1 X155.057 Y135.801 E13.01634
G1 X155.029 Y136.401 E13.03029
G1 X155.014 Y137.001 E13.04424
G1 X155.01 Y137.601 E13.05818
G1 X155.018 Y138.202 E13.07214
G1 X155.037 Y138.802 E13.08609
G1 X155.068 Y139.402 E13.10005
G1 X155.11 Y140.005 E13.1141
G1 X155.228 Y141.193 E13.14184
G1 X155.395 Y142.385 E13.1698
G1 X155.495 Y142.98 E13.18382
G1 X155.726 Y144.151 E13.21155
G1 X155.863 Y144.745 E13.22572
G1 X156.163 Y145.9 E13.25344
G1 X156.33 Y146.479 E13.26745
G1 X156.508 Y147.053 E13.28141
G1 X156.698 Y147.622 E13.29535
G1 X156.9 Y148.194 E13.30944
G1 X157.33 Y149.305 E13.33712
G1 X157.563 Y149.862 E13.35115
G1 X157.808 Y150.416 E13.36523
G1 X158.323 Y151.492 E13.39294
G1 X158.599 Y152.03 E13.40699
G1 X158.885 Y152.558 E13.42094
G1 X159.181 Y153.082 E13.43493
G1 X159.669 Y153.906 E13.45718
G1 X159.668 Y154.144 E13.46271
G1 X126.364 Y154.146 E14.23653
G1 X126.366 Y153.892 E14.24243
G1 X126.955 Y152.9 E14.26923
G1 X127.249 Y152.37 E14.28332
G1 X127.529 Y151.84 E14.29724
G1 X127.799 Y151.305 E14.31117
G1 X128.061 Y150.764 E14.32513
G1 X128.311 Y150.217 E14.33911
G1 X128.551 Y149.667 E14.35305
G1 X128.997 Y148.552 E14.38095
G1 X129.205 Y147.989 E14.3949
G1 X129.4 Y147.42 E14.40887
G1 X129.585 Y146.851 E14.42278
G1 X129.76 Y146.275 E14.43676
G1 X129.924 Y145.697 E14.45072
G1 X130.074 Y145.117 E14.46464
G1 X130.216 Y144.533 E14.47861
G1 X130.347 Y143.947 E14.49256
G1 X130.464 Y143.358 E14.50651
G1 X130.668 Y142.175 E14.5344
G1 X130.752 Y141.579 E14.54839
G1 X130.825 Y140.983 E14.56234
G1 X130.885 Y140.385 E14.57631
G1 X130.935 Y139.787 E14.59025
G1 X130.973 Y139.189 E14.60417
G1 X131.001 Y138.589 E14.61813
G1 X131.016 Y137.989 E14.63207
G1 X131.02 Y137.389 E14.64601
G1 X131.012 Y136.788 E14.65998
G1 X130.993 Y136.188 E14.67393
G1 X130.962 Y135.588 E14.68789
G1 X130.92 Y134.985 E14.70193
G1 X130.802 Y133.797 E14.72967
G1 X130.635 Y132.605 E14.75764
G1 X130.535 Y132.01 E14.77166
G1 X130.304 Y130.839 E14.79939
G1 X130.167 Y130.245 E14.81355
G1 X129.867 Y129.09 E14.84128
G1 X129.7 Y128.511 E14.85528
G1 X129.522 Y127.937 E14.86924
G1 X129.332 Y127.368 E14.88318
G1 X129.13 Y126.796 E14.89728
G1 X128.7 Y125.685 E14.92496
G1 X128.467 Y125.128 E14.93898
G1 X128.222 Y124.574 E14.95306
G1 X127.707 Y123.498 E14.98078
G1 X127.431 Y122.96 E14.99483
G1 X127.145 Y122.432 E15.00878
G1 X126.849 Y121.908 E15.02276
G1 F480 E14.52276
G0 F600 X130.368 Y125.123
G1 F480 E15.02276
G1 F300 X130.113 Y125.45 E15.0324
G1 X129.905 Y125.802 E15.0419
G1 X129.802 Y126.019 E15.04748
G1 X129.674 Y126.382 E15.05642
G1 X129.617 Y126.602 E15.0617
G1 X129.581 Y126.814 E15.0667
G1 X129.557 Y127.018 E15.07147
G1 X129.546 Y127.222 E15.07622
G1 X129.547 Y127.45 E15.08151
G1 X129.591 Y127.854 E15.09096
G1 X129.688 Y128.262 E15.1007
G1 X129.833 Y128.639 E15.11009
G1 X129.932 Y128.84 E15.11529
G1 X130.045 Y129.035 E15.12053
G1 X130.27 Y129.349 E15.1295
G1 X130.427 Y129.531 E15.13509
G1 X130.723 Y129.811 E15.14456
G1 X131.061 Y130.057 E15.15427
G1 X131.413 Y130.25 E15.1636
G1 X131.622 Y130.341 E15.16889
