;Generated by Cura LulzBot Edition GCodeWriter Version: 2.6.66
;FLAVOR:RepRap
;TIME:1323
;Filament used: 0.413502m
;Layer height: 0.18
;Generated with Cura_SteamEngine 2.6.66
;This G-Code has been generated specifically for the LulzBot TAZ 5 with standard extruder
M140 S110    ; start bed heating up
G21                      ; set units to Millimetres
G90                      ; absolute positioning
M107                     ; disable fans
M82                      ; set extruder to absolute mode
G28 X0 Y0                ; home X and Y
G28 Z0                   ; home Z
G1 Z15.0 F{travel_speed} ; move extruder up
M117 Heating...                     ; progress indicator message on LCD
M109 R240  ; wait for extruder to reach printing temp
M190 S110    ; wait for bed to reach printing temp
G92 E0                   ; set extruder position to 0
G1 F200 E0               ; prime the nozzle with filament
G92 E0                   ; re-set extruder position to 0
G1 F{travel_speed}       ; set travel speed
M203 X192 Y208 Z3        ; set limits on travel speed
M117 TAZ 5 Printing...   ; progress indicator message on LCD

M221 S100
;LAYER_COUNT:24
;LAYER:0
M107
G0 F2625 X124.943 Y117.507 Z0.424
;TYPE:SKIRT
G1 F900 X125.239 Y117.231 E0.01348
G1 X125.665 Y116.888 E0.0317
G1 X126.137 Y116.611 E0.04993
G1 X126.644 Y116.405 E0.06816
G1 X127.202 Y116.271 E0.08727
G1 X127.757 Y116.182 E0.106
G1 X128.352 Y116.135 E0.12588
G1 X135.412 Y116.137 E0.36105
G1 X135.632 Y116.144 E0.36838
G1 X140.822 Y116.451 E0.54157
G1 X146.311 Y116.533 E0.72443
G1 X151.798 Y116.305 E0.90736
G1 X154.097 Y116.143 E0.98413
G1 X154.377 Y116.134 E0.99346
G1 X162.069 Y116.166 E1.24969
G1 X162.614 Y116.208 E1.26789
G1 X163.148 Y116.329 E1.28613
G1 X163.472 Y116.445 E1.2976
G1 X163.675 Y116.528 E1.3049
G1 X164.165 Y116.771 E1.32312
G1 X164.615 Y117.084 E1.34138
G1 X165.147 Y117.611 E1.36632
G1 X165.465 Y117.996 E1.38296
G1 X165.782 Y118.442 E1.40118
G1 X166.031 Y118.93 E1.41943
G1 X166.205 Y119.449 E1.43767
G1 X166.317 Y120.149 E1.46128
G1 X166.36 Y120.835 E1.48418
G1 X166.337 Y121.545 E1.50784
G1 X165.453 Y128.47 E1.74038
G1 X165.094 Y133.894 E1.92146
G1 X165.043 Y139.337 E2.10277
G1 X165.299 Y144.773 E2.28405
G1 X165.868 Y150.246 E2.46734
G1 X166.336 Y153.801 E2.58678
G1 X166.368 Y154.347 E2.605
G1 X166.275 Y155.12 E2.63093
G1 X166.169 Y155.587 E2.64688
G1 X166.009 Y156.111 E2.66513
G1 X165.775 Y156.605 E2.68334
G1 X165.471 Y157.061 E2.7016
G1 X165.075 Y157.494 E2.72114
G1 X164.777 Y157.773 E2.73474
G1 X164.351 Y158.117 E2.75298
G1 X163.88 Y158.396 E2.77121
G1 X163.373 Y158.602 E2.78944
G1 X162.808 Y158.739 E2.80881
G1 X162.253 Y158.828 E2.82753
G1 X161.658 Y158.875 E2.84741
G1 X154.598 Y158.873 E3.08259
G1 X154.38 Y158.867 E3.08985
G1 X149.038 Y158.554 E3.2681
G1 X143.575 Y158.479 E3.45009
G1 X138.047 Y158.716 E3.6344
G1 X135.88 Y158.864 E3.70675
G1 X135.622 Y158.873 E3.71535
G1 X128.116 Y158.867 E3.96538
G1 X127.57 Y158.827 E3.98361
G1 X126.866 Y158.651 E4.00779
G1 X126.426 Y158.495 E4.02334
G1 X125.925 Y158.275 E4.04156
G1 X125.461 Y157.985 E4.05979
G1 X125.044 Y157.63 E4.07803
G1 X124.623 Y157.135 E4.09968
G1 X124.374 Y156.785 E4.11399
G1 X124.09 Y156.317 E4.13222
G1 X123.878 Y155.813 E4.15043
G1 X123.741 Y155.283 E4.16867
G1 X123.685 Y154.809 E4.18457
G1 X123.649 Y154.127 E4.20732
G1 X123.685 Y153.379 E4.23226
G1 X124.077 Y150.736 E4.32126
G1 X124.675 Y145.27 E4.50443
G1 X124.961 Y139.832 E4.68582
G1 X124.938 Y134.39 E4.86709
G1 X124.607 Y128.953 E5.04854
G1 X123.968 Y123.522 E5.23069
G1 X123.687 Y121.685 E5.2926
G1 X123.647 Y120.968 E5.31652
G1 X123.674 Y120.292 E5.33905
G1 X123.736 Y119.748 E5.35729
G1 X123.953 Y119.015 E5.38276
G1 X124.032 Y118.823 E5.38967
G1 X124.277 Y118.333 E5.40792
G1 X124.59 Y117.885 E5.42612
G1 X124.943 Y117.507 E5.44335
G0 F2625 X125.284 Y117.873
G1 F900 X125.58 Y117.597 E5.45683
G1 X125.978 Y117.28 E5.47378
G1 X126.422 Y117.029 E5.49077
G1 X126.899 Y116.85 E5.50774
G1 X127.281 Y116.765 E5.52078
G1 X127.836 Y116.676 E5.5395
G1 X128.352 Y116.635 E5.55674
G1 X135.412 Y116.637 E5.79192
G1 X135.603 Y116.643 E5.79828
G1 X140.808 Y116.951 E5.97196
G1 X146.325 Y117.034 E6.15576
G1 X151.819 Y116.805 E6.33892
G1 X154.132 Y116.642 E6.41616
G1 X154.375 Y116.634 E6.42426
G1 X162.067 Y116.666 E6.68049
G1 X162.574 Y116.708 E6.69743
G1 X163.283 Y116.908 E6.72197
G1 X163.486 Y116.991 E6.72928
G1 X163.941 Y117.22 E6.74624
G1 X164.355 Y117.517 E6.76322
G1 X164.762 Y117.929 E6.78251
G1 X165.08 Y118.314 E6.79914
G1 X165.372 Y118.731 E6.8161
G1 X165.596 Y119.189 E6.83308
G1 X165.746 Y119.676 E6.85006
G1 X165.818 Y120.181 E6.86705
G1 X165.861 Y120.867 E6.88994
G1 X165.841 Y121.481 E6.91041
G1 X164.956 Y128.421 E7.14345
G1 X164.594 Y133.874 E7.32549
G1 X164.543 Y139.355 E7.50808
G1 X164.799 Y144.796 E7.68952
G1 X165.374 Y150.324 E7.87465
G1 X165.84 Y153.866 E7.99365
G1 X165.867 Y154.375 E8.01063
G1 X165.787 Y155.009 E8.03192
G1 X165.681 Y155.476 E8.04787
G1 X165.53 Y155.963 E8.06485
G1 X165.304 Y156.42 E8.08184
G1 X165.01 Y156.836 E8.09881
G1 X164.733 Y157.129 E8.11224
G1 X164.435 Y157.408 E8.12583
G1 X164.037 Y157.726 E8.1428
G1 X163.594 Y157.978 E8.15978
G1 X163.117 Y158.158 E8.17676
G1 X162.729 Y158.245 E8.19001
G1 X162.174 Y158.334 E8.20873
G1 X161.658 Y158.375 E8.22597
G1 X154.598 Y158.373 E8.46115
G1 X154.409 Y158.367 E8.46744
G1 X149.074 Y158.054 E8.64546
G1 X143.561 Y157.979 E8.82912
G1 X138.03 Y158.216 E9.01353
G1 X135.846 Y158.365 E9.08645
G1 X135.622 Y158.373 E9.09391
G1 X128.116 Y158.367 E9.34394
G1 X127.608 Y158.327 E9.36091
G1 X127.033 Y158.18 E9.38068
G1 X126.593 Y158.024 E9.39623
G1 X126.128 Y157.817 E9.41319
G1 X125.7 Y157.539 E9.43019
G1 X125.322 Y157.198 E9.44715
G1 X125.031 Y156.845 E9.46239
G1 X124.782 Y156.495 E9.47669
G1 X124.52 Y156.058 E9.49367
G1 X124.329 Y155.585 E9.51066
G1 X124.215 Y155.089 E9.52761
G1 X124.185 Y154.782 E9.53789
G1 X124.149 Y154.1 E9.56063
G1 X124.179 Y153.452 E9.58224
G1 X124.575 Y150.783 E9.67212
G1 X125.173 Y145.317 E9.85528
G1 X125.461 Y139.839 E10.03801
G1 X125.438 Y134.376 E10.21998
G1 X125.106 Y128.917 E10.40216
G1 X124.462 Y123.447 E10.58563
G1 X124.181 Y121.61 E10.64753
G1 X124.147 Y120.988 E10.66828
G1 X124.174 Y120.312 E10.69082
G1 X124.234 Y119.806 E10.70779
G1 X124.415 Y119.205 E10.7287
G1 X124.494 Y119.013 E10.73561
G1 X124.725 Y118.559 E10.75258
G1 X125.023 Y118.146 E10.76955
G1 X125.284 Y117.873 E10.78213
G1 F600 E9.78213
G0 F2625 X136.435 Y119.288
G0 X136.894 Y119.537
G0 X138.704 Y120.958
;TYPE:SUPPORT
G1 F600 E10.78213
G1 F900 X151.303 Y120.959 E11.2018
G1 X151.305 Y123.002 E11.26986
G1 X138.702 Y123.006 E11.68967
G1 X138.704 Y120.958 E11.75789
G0 F2625 X138.904 Y121.618
G1 F900 X151.104 Y121.618 E12.16427
G0 F2625 X149.94 Y121.159
G1 F900 X149.94 Y122.803 E12.21904
G0 F2625 X148.274 Y122.803
G1 F900 X148.274 Y121.159 E12.2738
G0 F2625 X146.608 Y121.159
G1 F900 X146.608 Y122.804 E12.32859
G0 F2625 X144.942 Y122.805
G1 F900 X144.942 Y121.159 E12.38342
G0 F2625 X143.276 Y121.159
G1 F900 X143.276 Y122.805 E12.43825
G0 F2625 X141.61 Y122.806
G1 F900 X141.61 Y121.159 E12.49311
G0 F2625 X139.944 Y121.159
G1 F900 X139.944 Y122.806 E12.54798
G1 F600 E11.54798
G0 F2625 X136.827 Y119.483
G0 X136.355 Y119.262
G0 X127.905 Y119.235
G0 X127.376 Y119.439
G0 X126.944 Y119.867
G0 X126.771 Y120.252
G0 X126.723 Y121.179
G0 X126.738 Y154.617
G0 X126.949 Y155.153
G0 X127.354 Y155.557
G0 X127.852 Y155.763
G0 X136.3 Y155.761
G0 X136.878 Y155.486
G0 X137.288 Y154.971
G0 X138.706 Y152.007
G1 F600 E12.54798
G1 F900 X151.304 Y152.009 E12.96762
G1 X151.304 Y154.051 E13.03564
G1 X138.704 Y154.052 E13.45535
G1 X138.706 Y152.007 E13.52347
G0 F2625 X139.944 Y152.208
G1 F900 X139.944 Y153.852 E13.57823
G0 F2625 X138.905 Y153.272
G1 F900 X151.104 Y153.272 E13.98458
G0 F2625 X149.94 Y153.852
G1 F900 X149.94 Y152.209 E14.03931
G0 F2625 X148.274 Y152.209
G1 F900 X148.274 Y153.852 E14.09404
G0 F2625 X146.608 Y153.852
G1 F900 X146.608 Y152.209 E14.14877
G0 F2625 X144.942 Y152.208
G1 F900 X144.942 Y153.852 E14.20353
G0 F2625 X143.276 Y153.852
G1 F900 X143.276 Y152.208 E14.2583
G0 F2625 X141.61 Y152.208
G1 F900 X141.61 Y153.852 E14.31306
G1 F600 E13.31306
G0 F2625 X137.413 Y153.845
G0 X135.977 Y153.843
G0 X135.528 Y151.881
G0 X135.602 Y151.814
;TYPE:WALL-INNER
G1 F600 E14.31306
G1 F900 X136 Y151.853 E14.32638
G1 X135.996 Y154.373 E14.41032
G1 X128.168 Y154.374 E14.67107
G1 X128.152 Y154.374 E14.67161
G1 X128.138 Y154.375 E14.67208
G1 X128.135 Y153.94 E14.68657
G1 X128.151 Y153.893 E14.68822
G1 X128.159 Y153.88 E14.68872
G1 X128.429 Y153.44 E14.70592
G1 X128.717 Y152.949 E14.72488
G1 X129.261 Y151.959 E14.7625
G1 X129.523 Y151.453 E14.78148
G1 X129.773 Y150.944 E14.80037
G1 X130.014 Y150.43 E14.81928
G1 X130.246 Y149.912 E14.83819
G1 X130.469 Y149.391 E14.85707
G1 X130.681 Y148.863 E14.87602
G1 X130.883 Y148.335 E14.89485
G1 X131.078 Y147.799 E14.91385
G1 X131.435 Y146.727 E14.95149
G1 X131.599 Y146.181 E14.97048
G1 X131.753 Y145.635 E14.98938
G1 X131.896 Y145.086 E15.00827
G1 X132.03 Y144.536 E15.02713
G1 X132.154 Y143.98 E15.04611
G1 X132.266 Y143.425 E15.06497
G1 X132.369 Y142.868 E15.08383
G1 X132.463 Y142.308 E15.10275
G1 X132.546 Y141.747 E15.12164
G1 X132.619 Y141.184 E15.14055
G1 X132.733 Y140.053 E15.17841
G1 X132.805 Y138.925 E15.21607
G1 X132.826 Y138.355 E15.23506
G1 X132.836 Y137.788 E15.25395
G1 X132.836 Y137.219 E15.27291
G1 X132.806 Y136.086 E15.31066
G1 X132.732 Y134.955 E15.34842
G1 X132.619 Y133.829 E15.38611
G1 X132.545 Y133.26 E15.40523
G1 X132.37 Y132.143 E15.44289
G1 X132.154 Y131.03 E15.48065
G1 X131.897 Y129.927 E15.51838
G1 X131.752 Y129.372 E15.53749
G1 X131.435 Y128.286 E15.57517
G1 X131.078 Y127.209 E15.61297
G1 X130.682 Y126.15 E15.65063
G1 X130.468 Y125.617 E15.66976
G1 X130.015 Y124.581 E15.70742
G1 X129.524 Y123.559 E15.74519
G1 X129.261 Y123.051 E15.76425
G1 X128.715 Y122.059 E15.80197
G1 X128.16 Y121.119 E15.83833
G1 X128.134 Y121.075 E15.84003
G1 X128.138 Y120.635 E15.85469
G1 X128.19 Y120.635 E15.85633
G1 X135.749 Y120.637 E16.10812
G1 X135.999 Y120.637 E16.11645
G1 X135.999 Y120.887 E16.12184
G1 X135.998 Y123.126 E16.19642
G1 X134.102 Y123.128 E16.25958
G1 X134.102 Y129.158 E16.46044
G1 X155.908 Y129.158 E17.1868
G1 X155.908 Y123.129 E17.38763
G1 X154.012 Y123.124 E17.45079
G1 X154.013 Y120.635 E17.5337
G1 X161.843 Y120.637 E17.79452
G1 X161.874 Y120.637 E17.79555
G1 X161.876 Y121.065 E17.80981
G1 X161.865 Y121.101 E17.81106
G1 X161.849 Y121.127 E17.81205
G1 X161.44 Y121.806 E17.83845
G1 X161.157 Y122.299 E17.85739
G1 X160.619 Y123.298 E17.89518
G1 X160.364 Y123.805 E17.91409
G1 X160.119 Y124.316 E17.93296
G1 X159.882 Y124.831 E17.95185
G1 X159.654 Y125.351 E17.97076
G1 X159.436 Y125.876 E17.9897
G1 X159.229 Y126.403 E18.00856
G1 X159.03 Y126.935 E18.02748
G1 X158.841 Y127.47 E18.04638
G1 X158.663 Y128.008 E18.06525
G1 X158.494 Y128.55 E18.08417
G1 X158.335 Y129.094 E18.10304
G1 X158.186 Y129.644 E18.12203
G1 X157.918 Y130.742 E18.15967
G1 X157.8 Y131.3 E18.17867
G1 X157.691 Y131.856 E18.19755
G1 X157.593 Y132.415 E18.21645
G1 X157.505 Y132.975 E18.23533
G1 X157.427 Y133.538 E18.25427
G1 X157.359 Y134.101 E18.27316
G1 X157.303 Y134.666 E18.29207
G1 X157.256 Y135.231 E18.31095
G1 X157.22 Y135.796 E18.32981
G1 X157.193 Y136.364 E18.34875
G1 X157.178 Y136.931 E18.36765
G1 X157.173 Y137.502 E18.38667
G1 X157.193 Y138.63 E18.42425
G1 X157.219 Y139.203 E18.44335
G1 X157.301 Y140.329 E18.48096
G1 X157.359 Y140.9 E18.50008
G1 X157.503 Y142.021 E18.53773
G1 X157.689 Y143.136 E18.57538
G1 X157.797 Y143.7 E18.59451
G1 X158.043 Y144.801 E18.63209
G1 X158.182 Y145.355 E18.65111
G1 X158.332 Y145.906 E18.67014
G1 X158.658 Y146.986 E18.70772
G1 X158.839 Y147.531 E18.72684
G1 X159.224 Y148.594 E18.7645
G1 X159.648 Y149.645 E18.80225
G1 X160.112 Y150.683 E18.84013
G1 X160.611 Y151.696 E18.87774
G1 X161.151 Y152.699 E18.91569
G1 X161.434 Y153.192 E18.93462
G1 X161.849 Y153.891 E18.9617
G1 X161.876 Y153.936 E18.96345
G1 X161.872 Y154.375 E18.97807
G1 X161.819 Y154.375 E18.97975
G1 X154.261 Y154.373 E19.23151
G1 X154.011 Y154.373 E19.23983
G1 X154.011 Y154.123 E19.24522
G1 X154.013 Y151.907 E19.31904
G1 X154.014 Y151.895 E19.31944
G1 X154.409 Y151.907 E19.3326
G1 X154.409 Y151.895
G1 X154.409 Y146.101 E19.5256
G1 X154.409 Y145.851 E19.53393
G1 X154.159 Y145.851 E19.53932
G1 X135.602 Y145.852 E20.15746
G1 X135.602 Y151.814 E20.35606
G0 F2625 X136.102 Y151.36
;TYPE:WALL-OUTER
G1 F900 X136.42 Y151.391 E20.3667
G1 X136.474 Y151.421 E20.36876
G1 X136.491 Y151.45 E20.36988
G1 X136.501 Y151.497 E20.37148
G1 X136.496 Y154.441 E20.46954
G1 X136.461 Y154.577 E20.47422
G1 X136.424 Y154.644 E20.47677
G1 X136.362 Y154.722 E20.48009
G1 X136.295 Y154.782 E20.48308
G1 X136.226 Y154.824 E20.48577
G1 X136.112 Y154.865 E20.48981
G1 X136.06 Y154.873 E20.49156
G1 X128.107 Y154.876 E20.75648
G1 X128.023 Y154.864 E20.75931
G1 X127.934 Y154.835 E20.76242
G1 X127.84 Y154.782 E20.76602
G1 X127.76 Y154.711 E20.76958
G1 X127.712 Y154.646 E20.77227
G1 X127.657 Y154.529 E20.77658
G1 X127.64 Y154.456 E20.77908
G1 X127.634 Y154.38 E20.78162
G1 X127.635 Y153.886 E20.79807
G1 X127.667 Y153.741 E20.80302
G1 X127.712 Y153.653 E20.80631
G1 X128 Y153.183 E20.82467
G1 X128.282 Y152.702 E20.84324
G1 X128.82 Y151.724 E20.88043
G1 X129.076 Y151.228 E20.89902
G1 X129.322 Y150.727 E20.91761
G1 X129.56 Y150.221 E20.93624
G1 X129.788 Y149.712 E20.95482
G1 X130.007 Y149.199 E20.9734
G1 X130.216 Y148.68 E20.99203
G1 X130.415 Y148.16 E21.01058
G1 X130.606 Y147.635 E21.02919
G1 X130.958 Y146.576 E21.06636
G1 X131.119 Y146.041 E21.08497
G1 X131.27 Y145.504 E21.10355
G1 X131.411 Y144.964 E21.12214
G1 X131.543 Y144.422 E21.14073
G1 X131.665 Y143.876 E21.15936
G1 X131.775 Y143.33 E21.17792
G1 X131.877 Y142.781 E21.19652
G1 X131.969 Y142.23 E21.21512
G1 X132.051 Y141.678 E21.23371
G1 X132.122 Y141.125 E21.25228
G1 X132.183 Y140.569 E21.27092
G1 X132.234 Y140.014 E21.28948
G1 X132.306 Y138.9 E21.32667
G1 X132.326 Y138.342 E21.34527
G1 X132.336 Y137.784 E21.36386
G1 X132.336 Y137.226 E21.38244
G1 X132.306 Y136.109 E21.41966
G1 X132.234 Y134.996 E21.45682
G1 X132.122 Y133.886 E21.49398
G1 X132.05 Y133.331 E21.51262
G1 X131.877 Y132.229 E21.54978
G1 X131.665 Y131.134 E21.58693
G1 X131.412 Y130.047 E21.62411
G1 X131.27 Y129.505 E21.64277
G1 X130.958 Y128.435 E21.6799
G1 X130.606 Y127.375 E21.7171
G1 X130.216 Y126.331 E21.75422
G1 X130.007 Y125.81 E21.77292
G1 X129.561 Y124.79 E21.81001
G1 X129.076 Y123.782 E21.84727
G1 X128.82 Y123.286 E21.86586
G1 X128.281 Y122.307 E21.90309
G1 X127.676 Y121.288 E21.94256
G1 X127.642 Y121.178 E21.9464
G1 X127.634 Y121.101 E21.94898
G1 X127.634 Y120.616 E21.96513
G1 X127.66 Y120.471 E21.97004
G1 X127.709 Y120.369 E21.97381
G1 X127.758 Y120.302 E21.97657
G1 X127.798 Y120.262 E21.97846
G1 X127.878 Y120.204 E21.98175
G1 X127.945 Y120.17 E21.98425
G1 X128.05 Y120.14 E21.98789
G1 X128.108 Y120.134 E21.98983
G1 X136.056 Y120.137 E22.25458
G1 X136.137 Y120.152 E22.25733
G1 X136.225 Y120.186 E22.26047
G1 X136.303 Y120.234 E22.26352
G1 X136.377 Y120.303 E22.26689
G1 X136.447 Y120.405 E22.27101
G1 X136.486 Y120.509 E22.27471
G1 X136.499 Y120.591 E22.27748
G1 X136.498 Y123.525 E22.37521
G1 X136.483 Y123.574 E22.37692
G1 X136.453 Y123.606 E22.37838
G1 X136.41 Y123.625 E22.37994
G1 X134.602 Y123.627 E22.44017
G1 X134.602 Y128.658 E22.60775
G1 X155.408 Y128.658 E23.30081
G1 X155.408 Y123.628 E23.46836
G1 X153.61 Y123.623 E23.52825
G1 X153.568 Y123.612 E23.5297
G1 X153.523 Y123.568 E23.53179
G1 X153.512 Y123.535 E23.53295
G1 X153.509 Y120.616 E23.63018
G1 X153.535 Y120.471 E23.63509
G1 X153.584 Y120.369 E23.63886
G1 X153.633 Y120.302 E23.64163
G1 X153.673 Y120.262 E23.64351
G1 X153.753 Y120.204 E23.6468
G1 X153.82 Y120.17 E23.6493
G1 X153.925 Y120.14 E23.65294
G1 X153.983 Y120.134 E23.65488
G1 X161.931 Y120.137 E23.91964
G1 X162.012 Y120.152 E23.92238
G1 X162.1 Y120.186 E23.92552
G1 X162.178 Y120.234 E23.92857
G1 X162.252 Y120.303 E23.93194
G1 X162.322 Y120.405 E23.93606
G1 X162.361 Y120.509 E23.93976
G1 X162.374 Y120.591 E23.94253
G1 X162.377 Y121.08 E23.95882
G1 X162.371 Y121.159 E23.96146
G1 X162.324 Y121.308 E23.96666
