;Generated by Cura LulzBot Edition GCodeWriter Version: 2.6.66
;FLAVOR:RepRap
;TIME:1932
;Filament used: 0.318812m
;Layer height: 0.18
;Generated with Cura_SteamEngine 2.6.66
;This G-Code has been generated specifically for the LulzBot TAZ 5 with standard extruder
M140 S110    ; start bed heating up
G21                      ; set units to Millimetres
G90                      ; absolute positioning
M107                     ; disable fans
M82                      ; set extruder to absolute mode
G28 X0 Y0                ; home X and Y
G28 Z0                   ; home Z
G1 Z15.0 F{travel_speed} ; move extruder up
M117 Heating...                     ; progress indicator message on LCD
M109 R240  ; wait for extruder to reach printing temp
M190 S110    ; wait for bed to reach printing temp
G92 E0                   ; set extruder position to 0
G1 F200 E0               ; prime the nozzle with filament
G92 E0                   ; re-set extruder position to 0
G1 F{travel_speed}       ; set travel speed
M203 X192 Y208 Z3        ; set limits on travel speed
M117 TAZ 5 Printing...   ; progress indicator message on LCD

M221 S100
;LAYER_COUNT:77
;LAYER:0
M107
G0 F2625 X135.682 Y117.491 Z0.424
G0 X135.877 Y117.319
;TYPE:SKIRT
G1 F900 X136.182 Y117.103 E0.01245
G1 X136.623 Y116.93 E0.02823
G1 X136.854 Y116.874 E0.03615
G1 X137.268 Y116.825 E0.05003
G1 X140.772 Y116.829 E0.16675
G1 X141.143 Y116.869 E0.17918
G1 X141.335 Y116.923 E0.18583
G1 X141.587 Y117.009 E0.1947
G1 X141.926 Y117.167 E0.20715
G1 X142.334 Y117.507 E0.22485
G1 X142.506 Y117.702 E0.23351
G1 X142.722 Y118.007 E0.24596
G1 X142.894 Y118.444 E0.2616
G1 X142.95 Y118.673 E0.26945
G1 X143 Y119.09 E0.28344
G1 X142.996 Y127.946 E0.57844
G1 X142.956 Y128.317 E0.59087
G1 X142.904 Y128.506 E0.5974
G1 X142.819 Y128.757 E0.60623
G1 X142.662 Y129.096 E0.61867
G1 X142.319 Y129.508 E0.63653
G1 X142.123 Y129.681 E0.64524
G1 X141.818 Y129.897 E0.65769
G1 X141.377 Y130.07 E0.67347
G1 X141.146 Y130.126 E0.68138
G1 X140.734 Y130.175 E0.6952
G1 X138.066 Y130.175 E0.78408
G1 X137.654 Y130.126 E0.7979
G1 X137.423 Y130.07 E0.80581
G1 X137.071 Y129.943 E0.81828
G1 X136.681 Y129.685 E0.83385
G1 X136.486 Y129.514 E0.84249
G1 X136.233 Y129.239 E0.85494
G1 X135.986 Y128.77 E0.8726
G1 X135.904 Y128.533 E0.88095
G1 X135.82 Y128.169 E0.8934
G1 X135.839 Y127.634 E0.91123
G1 X135.887 Y127.382 E0.91977
G1 X135.996 Y127.024 E0.93224
G1 X136.178 Y126.698 E0.94468
G1 X136.297 Y126.548 E0.95105
G1 X136.469 Y126.354 E0.95969
G1 X136.745 Y126.103 E0.97212
G1 X137.213 Y125.859 E0.9897
G1 X137.465 Y125.773 E0.99857
G1 X137.829 Y125.691 E1.011
G1 X138.027 Y125.679 E1.0176
G1 X138.3 Y125.678 E1.0267
G1 X138.3 Y122.055 E1.14738
G1 X137.979 Y122.192 E1.15901
G1 X137.795 Y122.238 E1.16532
G1 X137.544 Y122.286 E1.17384
G1 X137.171 Y122.316 E1.1863
G1 X136.645 Y122.222 E1.2041
G1 X136.407 Y122.14 E1.21249
G1 X136.069 Y121.981 E1.22493
G1 X135.661 Y121.639 E1.24266
G1 X135.49 Y121.444 E1.2513
G1 X135.275 Y121.138 E1.26376
G1 X135.13 Y120.794 E1.27619
G1 X135.058 Y120.364 E1.29072
G1 X135.006 Y119.129 E1.33189
G1 X135.03 Y118.756 E1.34434
G1 X135.098 Y118.49 E1.35349
G1 X135.184 Y118.238 E1.36236
G1 X135.342 Y117.899 E1.37482
G1 X135.682 Y117.491 E1.39251
G1 X135.877 Y117.319 E1.40117
G1 F600 E0.40117
G0 F2625 X136.1 Y120.219
G0 X136.309 Y120.754
G0 X136.777 Y121.136
G0 X137.37 Y121.231
G0 X138.8 Y120.839
G1 F600 E1.40117
G1 F900 X138.704 Y121.034 E1.40841
G1 X138.489 Y121.282 E1.41934
G1 X138.295 Y121.454 E1.42798
G1 X138.035 Y121.632 E1.43847
G1 X137.701 Y121.747 E1.45024
G1 X137.45 Y121.795 E1.45875
G1 X137.135 Y121.814 E1.46926
G1 X136.808 Y121.749 E1.48037
G1 X136.57 Y121.667 E1.48875
G1 X136.287 Y121.527 E1.49927
G1 X136.037 Y121.309 E1.51032
G1 X135.866 Y121.114 E1.51896
G1 X135.69 Y120.853 E1.52945
G1 X135.584 Y120.555 E1.53998
G1 X135.557 Y120.343 E1.5471
G1 X135.505 Y119.108 E1.58828
G1 X135.571 Y118.651 E1.60366
G1 X135.657 Y118.399 E1.61253
G1 X135.796 Y118.116 E1.62303
G1 X136.013 Y117.866 E1.63406
G1 X136.208 Y117.694 E1.64272
G1 X136.469 Y117.516 E1.65324
G1 X136.74 Y117.416 E1.66286
G1 X136.971 Y117.36 E1.67078
G1 X137.267 Y117.325 E1.68071
G1 X140.771 Y117.329 E1.79743
G1 X141.174 Y117.396 E1.81104
G1 X141.426 Y117.482 E1.81991
G1 X141.709 Y117.621 E1.83041
G1 X141.959 Y117.838 E1.84144
G1 X142.131 Y118.033 E1.8501
G1 X142.309 Y118.294 E1.86062
G1 X142.408 Y118.563 E1.87017
G1 X142.464 Y118.792 E1.87802
G1 X142.5 Y119.09 E1.88802
G1 X142.496 Y127.946 E2.18302
G1 X142.43 Y128.346 E2.19652
G1 X142.345 Y128.597 E2.20535
G1 X142.207 Y128.881 E2.21587
G1 X141.988 Y129.133 E2.22699
G1 X141.792 Y129.306 E2.23569
G1 X141.531 Y129.483 E2.2462
G1 X141.26 Y129.584 E2.25583
G1 X141.029 Y129.64 E2.26375
G1 X140.734 Y129.675 E2.27365
G1 X138.066 Y129.675 E2.36252
G1 X137.771 Y129.64 E2.37241
G1 X137.54 Y129.584 E2.38033
G1 X137.246 Y129.471 E2.39082
G1 X137.011 Y129.309 E2.40033
G1 X136.816 Y129.138 E2.40897
G1 X136.607 Y128.901 E2.4195
G1 X136.459 Y128.607 E2.43046
G1 X136.377 Y128.37 E2.43881
G1 X136.312 Y128.061 E2.44933
G1 X136.33 Y127.727 E2.46047
G1 X136.378 Y127.475 E2.46902
G1 X136.476 Y127.175 E2.47953
G1 X136.671 Y126.88 E2.49131
G1 X136.843 Y126.686 E2.49995
G1 X137.08 Y126.478 E2.51045
G1 X137.374 Y126.332 E2.52139
G1 X137.626 Y126.246 E2.53025
G1 X138.028 Y126.179 E2.54383
G1 X138.8 Y126.177 E2.56955
G1 X138.8 Y120.839 E2.74736
G0 F2625 X139.3 Y120.325
G1 F900 X138.458 Y120.325 E2.7754
G1 X138.456 Y120.337 E2.77581
G1 X138.37 Y120.589 E2.78468
G1 X138.254 Y120.804 E2.79282
G1 X138.158 Y120.908 E2.79753
G1 X137.964 Y121.08 E2.80617
G1 X137.757 Y121.21 E2.81431
G1 X137.607 Y121.256 E2.81954
G1 X137.356 Y121.304 E2.82805
G1 X137.112 Y121.31 E2.83618
G1 X136.971 Y121.276 E2.84101
G1 X136.733 Y121.194 E2.8494
G1 X136.518 Y121.078 E2.85753
G1 X136.413 Y120.979 E2.86234
G1 X136.242 Y120.784 E2.87098
G1 X136.113 Y120.577 E2.8791
G1 X136.057 Y120.322 E2.8878
G1 X136.005 Y119.087 E2.92897
G1 X136.044 Y118.813 E2.93819
G1 X136.13 Y118.561 E2.94706
G1 X136.246 Y118.346 E2.9552
G1 X136.344 Y118.241 E2.95999
G1 X136.539 Y118.069 E2.96865
G1 X136.858 Y117.902 E2.98064
G1 X137.089 Y117.846 E2.98856
G1 X137.267 Y117.825 E2.99453
G1 X140.771 Y117.829 E3.11125
G1 X141.012 Y117.869 E3.11939
G1 X141.264 Y117.955 E3.12826
G1 X141.479 Y118.071 E3.13639
G1 X141.584 Y118.169 E3.14118
G1 X141.756 Y118.364 E3.14984
G1 X141.923 Y118.682 E3.1618
G1 X141.979 Y118.911 E3.16966
G1 X142 Y119.089 E3.17563
G1 X141.996 Y127.945 E3.47062
G1 X141.956 Y128.186 E3.47876
G1 X141.871 Y128.437 E3.48759
G1 X141.756 Y128.652 E3.49571
G1 X141.657 Y128.758 E3.50054
G1 X141.461 Y128.931 E3.50925
G1 X141.142 Y129.098 E3.52124
G1 X140.911 Y129.154 E3.52916
G1 X140.734 Y129.175 E3.5351
G1 X138.066 Y129.175 E3.62397
G1 X137.889 Y129.154 E3.62991
G1 X137.658 Y129.098 E3.63783
G1 X137.341 Y128.933 E3.64973
G1 X137.146 Y128.762 E3.65837
G1 X136.991 Y128.573 E3.66651
G1 X136.931 Y128.443 E3.67128
G1 X136.849 Y128.206 E3.67963
G1 X136.808 Y127.966 E3.68774
G1 X136.821 Y127.821 E3.69259
G1 X136.869 Y127.569 E3.70114
G1 X136.953 Y127.339 E3.70929
G1 X137.045 Y127.211 E3.71455
G1 X137.217 Y127.017 E3.72318
G1 X137.406 Y126.864 E3.73128
G1 X137.536 Y126.805 E3.73604
G1 X137.788 Y126.719 E3.74491
G1 X138.029 Y126.679 E3.75304
G1 X139.3 Y126.676 E3.79538
G1 X139.3 Y120.325 E4.00694
G0 F2625 X139.8 Y119.825
G1 F900 X137.998 Y119.825 E4.06696
G1 X137.996 Y120.097 E4.07602
G1 X137.983 Y120.176 E4.07869
G1 X137.897 Y120.428 E4.08756
G1 X137.826 Y120.534 E4.09181
G1 X137.632 Y120.706 E4.10044
G1 X137.513 Y120.765 E4.10487
G1 X137.262 Y120.813 E4.11338
G1 X137.134 Y120.803 E4.11766
G1 X136.896 Y120.721 E4.12604
G1 X136.789 Y120.65 E4.13032
G1 X136.618 Y120.455 E4.13896
G1 X136.556 Y120.301 E4.14449
G1 X136.504 Y119.066 E4.18567
G1 X136.517 Y118.974 E4.18876
G1 X136.603 Y118.722 E4.19763
G1 X136.675 Y118.616 E4.2019
G1 X136.87 Y118.444 E4.21056
G1 X136.976 Y118.388 E4.21455
G1 X137.207 Y118.332 E4.22247
G1 X137.266 Y118.325 E4.22445
G1 X140.77 Y118.329 E4.34117
G1 X140.851 Y118.342 E4.3439
G1 X141.103 Y118.428 E4.35277
G1 X141.209 Y118.5 E4.35704
G1 X141.381 Y118.695 E4.3657
G1 X141.437 Y118.801 E4.36969
G1 X141.493 Y119.03 E4.37755
G1 X141.5 Y119.089 E4.37953
G1 X141.496 Y127.945 E4.67452
G1 X141.483 Y128.025 E4.67722
G1 X141.398 Y128.276 E4.68605
G1 X141.326 Y128.383 E4.69035
G1 X141.13 Y128.556 E4.69905
G1 X141.024 Y128.612 E4.70305
G1 X140.793 Y128.668 E4.71096
G1 X140.734 Y128.675 E4.71294
G1 X138.066 Y128.675 E4.80182
G1 X138.007 Y128.668 E4.8038
G1 X137.776 Y128.612 E4.81171
G1 X137.67 Y128.557 E4.81569
G1 X137.475 Y128.386 E4.82433
G1 X137.404 Y128.28 E4.82858
G1 X137.322 Y128.043 E4.83693
G1 X137.312 Y127.914 E4.84124
G1 X137.36 Y127.662 E4.84979
G1 X137.419 Y127.543 E4.85421
G1 X137.591 Y127.349 E4.86285
G1 X137.697 Y127.278 E4.8671
G1 X137.949 Y127.192 E4.87597
G1 X138.03 Y127.179 E4.8787
G1 X139.8 Y127.175 E4.93766
G1 X139.8 Y119.825 E5.18249
G1 F600 E4.18249
G0 F2625 X139.397 Y120.228
G0 X136.894 Y127.805
G0 X136.989 Y128.398
G0 X137.371 Y128.866
G0 X137.906 Y129.075
G0 X140.894 Y129.075
G0 X141.43 Y128.866
G0 X141.811 Y128.397
G0 X145.006 Y119.129
G1 F600 E5.18249
G1 F900 X145.03 Y118.756 E5.19494
G1 X145.098 Y118.49 E5.20409
G1 X145.184 Y118.238 E5.21296
G1 X145.342 Y117.899 E5.22542
G1 X145.682 Y117.491 E5.24311
G1 X145.877 Y117.319 E5.25177
G1 X146.182 Y117.103 E5.26422
G1 X146.623 Y116.93 E5.28
G1 X146.854 Y116.874 E5.28791
G1 X147.268 Y116.825 E5.3018
G1 X150.772 Y116.829 E5.41852
G1 X151.143 Y116.869 E5.43095
G1 X151.335 Y116.923 E5.43759
G1 X151.587 Y117.009 E5.44646
G1 X151.926 Y117.167 E5.45892
G1 X152.334 Y117.507 E5.47661
G1 X152.506 Y117.702 E5.48528
G1 X152.722 Y118.007 E5.49772
G1 X152.894 Y118.444 E5.51337
G1 X152.95 Y118.673 E5.52122
G1 X153 Y119.09 E5.53521
G1 X152.996 Y127.946 E5.83021
G1 X152.956 Y128.317 E5.84264
G1 X152.904 Y128.506 E5.84917
G1 X152.819 Y128.757 E5.85799
G1 X152.662 Y129.096 E5.87044
G1 X152.319 Y129.508 E5.8883
G1 X152.123 Y129.681 E5.897
G1 X151.818 Y129.897 E5.90945
G1 X151.377 Y130.07 E5.92523
G1 X151.146 Y130.126 E5.93315
G1 X150.734 Y130.175 E5.94697
G1 X148.066 Y130.175 E6.03584
G1 X147.654 Y130.126 E6.04966
G1 X147.423 Y130.07 E6.05758
G1 X147.071 Y129.943 E6.07005
G1 X146.681 Y129.685 E6.08562
G1 X146.486 Y129.514 E6.09426
G1 X146.233 Y129.239 E6.10671
G1 X145.986 Y128.77 E6.12437
G1 X145.904 Y128.533 E6.13272
G1 X145.82 Y128.169 E6.14516
G1 X145.839 Y127.634 E6.163
G1 X145.887 Y127.382 E6.17154
G1 X145.996 Y127.024 E6.18401
G1 X146.178 Y126.698 E6.19644
G1 X146.297 Y126.548 E6.20282
G1 X146.469 Y126.354 E6.21146
G1 X146.745 Y126.103 E6.22388
G1 X147.213 Y125.859 E6.24147
G1 X147.465 Y125.773 E6.25034
G1 X147.829 Y125.691 E6.26276
G1 X148.027 Y125.679 E6.26937
G1 X148.3 Y125.678 E6.27847
G1 X148.3 Y122.055 E6.39915
G1 X147.979 Y122.192 E6.41077
G1 X147.795 Y122.238 E6.41709
G1 X147.544 Y122.286 E6.4256
G1 X147.171 Y122.316 E6.43807
G1 X146.645 Y122.222 E6.45587
G1 X146.407 Y122.14 E6.46425
G1 X146.069 Y121.981 E6.4767
G1 X145.661 Y121.639 E6.49443
G1 X145.49 Y121.444 E6.50307
G1 X145.275 Y121.138 E6.51553
G1 X145.13 Y120.794 E6.52796
G1 X145.058 Y120.364 E6.54248
G1 X145.006 Y119.129 E6.58366
G1 F600 E5.58366
G0 F2625 X146.568 Y121.015
G0 X147.13 Y121.231
G0 X147.723 Y121.136
G0 X148.8 Y120.839
G1 F600 E6.58366
G1 F900 X148.704 Y121.034 E6.5909
G1 X148.489 Y121.282 E6.60183
G1 X148.295 Y121.454 E6.61047
G1 X148.035 Y121.632 E6.62096
G1 X147.701 Y121.747 E6.63273
G1 X147.45 Y121.795 E6.64124
G1 X147.135 Y121.814 E6.65176
G1 X146.808 Y121.749 E6.66286
G1 X146.57 Y121.667 E6.67125
G1 X146.287 Y121.527 E6.68176
G1 X146.037 Y121.309 E6.69281
G1 X145.866 Y121.114 E6.70145
G1 X145.69 Y120.853 E6.71194
G1 X145.584 Y120.555 E6.72247
G1 X145.557 Y120.343 E6.72959
G1 X145.505 Y119.108 E6.77077
G1 X145.571 Y118.651 E6.78615
G1 X145.657 Y118.399 E6.79502
G1 X145.796 Y118.116 E6.80552
G1 X146.013 Y117.866 E6.81655
G1 X146.208 Y117.694 E6.82521
G1 X146.469 Y117.516 E6.83573
G1 X146.74 Y117.416 E6.84535
G1 X146.971 Y117.36 E6.85327
G1 X147.267 Y117.325 E6.8632
G1 X150.771 Y117.329 E6.97992
G1 X151.174 Y117.396 E6.99353
G1 X151.426 Y117.482 E7.0024
G1 X151.709 Y117.621 E7.0129
G1 X151.959 Y117.838 E7.02393
G1 X152.131 Y118.033 E7.03259
G1 X152.309 Y118.294 E7.04311
G1 X152.408 Y118.563 E7.05266
G1 X152.464 Y118.792 E7.06051
G1 X152.5 Y119.09 E7.07051
G1 X152.496 Y127.946 E7.36551
G1 X152.43 Y128.346 E7.37901
G1 X152.345 Y128.597 E7.38784
G1 X152.207 Y128.881 E7.39836
G1 X151.988 Y129.133 E7.40948
G1 X151.792 Y129.306 E7.41819
G1 X151.531 Y129.483 E7.42869
G1 X151.26 Y129.584 E7.43833
G1 X151.029 Y129.64 E7.44624
G1 X150.734 Y129.675 E7.45614
G1 X148.066 Y129.675 E7.54501
G1 X147.771 Y129.64 E7.55491
G1 X147.54 Y129.584 E7.56282
G1 X147.246 Y129.471 E7.57332
G1 X147.011 Y129.309 E7.58282
G1 X146.816 Y129.138 E7.59146
G1 X146.607 Y128.901 E7.60199
G1 X146.459 Y128.607 E7.61295
G1 X146.377 Y128.37 E7.62131
G1 X146.312 Y128.061 E7.63182
G1 X146.33 Y127.727 E7.64297
G1 X146.378 Y127.475 E7.65151
G1 X146.476 Y127.175 E7.66202
G1 X146.671 Y126.88 E7.6738
G1 X146.843 Y126.686 E7.68244
G1 X147.08 Y126.478 E7.69294
G1 X147.374 Y126.332 E7.70388
G1 X147.626 Y126.246 E7.71275
G1 X148.028 Y126.179 E7.72632
G1 X148.8 Y126.177 E7.75204
G1 X148.8 Y120.839 E7.92985
G0 F2625 X149.3 Y120.325
G1 F900 X148.458 Y120.325 E7.9579
G1 X148.456 Y120.337 E7.9583
G1 X148.37 Y120.589 E7.96717
G1 X148.254 Y120.804 E7.97531
G1 X148.158 Y120.908 E7.98002
G1 X147.964 Y121.08 E7.98866
G1 X147.757 Y121.21 E7.9968
G1 X147.607 Y121.256 E8.00203
G1 X147.356 Y121.304 E8.01054
G1 X147.112 Y121.31 E8.01867
G1 X146.971 Y121.276 E8.0235
G1 X146.733 Y121.194 E8.03189
G1 X146.518 Y121.078 E8.04002
G1 X146.413 Y120.979 E8.04483
G1 X146.242 Y120.784 E8.05347
G1 X146.113 Y120.577 E8.0616
G1 X146.057 Y120.322 E8.07029
G1 X146.005 Y119.087 E8.11147
G1 X146.044 Y118.813 E8.12069
G1 X146.13 Y118.561 E8.12956
G1 X146.246 Y118.346 E8.13769
G1 X146.344 Y118.241 E8.14248
G1 X146.539 Y118.069 E8.15114
G1 X146.858 Y117.902 E8.16313
G1 X147.089 Y117.846 E8.17105
G1 X147.267 Y117.825 E8.17702
G1 X150.771 Y117.829 E8.29374
G1 X151.012 Y117.869 E8.30188
G1 X151.264 Y117.955 E8.31075
G1 X151.479 Y118.071 E8.31889
G1 X151.584 Y118.169 E8.32367
G1 X151.756 Y118.364 E8.33233
G1 X151.923 Y118.682 E8.3443
G1 X151.979 Y118.911 E8.35215
G1 X152 Y119.089 E8.35812
G1 X151.996 Y127.945 E8.65311
G1 X151.956 Y128.186 E8.66125
G1 X151.871 Y128.437 E8.67008
G1 X151.756 Y128.652 E8.6782
G1 X151.657 Y128.758 E8.68303
G1 X151.461 Y128.931 E8.69174
G1 X151.142 Y129.098 E8.70374
G1 X150.911 Y129.154 E8.71165
G1 X150.734 Y129.175 E8.71759
G1 X148.066 Y129.175 E8.80646
G1 X147.889 Y129.154 E8.8124
G1 X147.658 Y129.098 E8.82032
G1 X147.341 Y128.933 E8.83222
G1 X147.146 Y128.762 E8.84086
G1 X146.991 Y128.573 E8.849
G1 X146.931 Y128.443 E8.85377
G1 X146.849 Y128.206 E8.86213
G1 X146.808 Y127.966 E8.87024
G1 X146.821 Y127.821 E8.87509
G1 X146.869 Y127.569 E8.88363
G1 X146.953 Y127.339 E8.89179
G1 X147.045 Y127.211 E8.89704
G1 X147.217 Y127.017 E8.90567
G1 X147.406 Y126.864 E8.91377
G1 X147.536 Y126.805 E8.91853
G1 X147.788 Y126.719 E8.9274
G1 X148.029 Y126.679 E8.93554
G1 X149.3 Y126.676 E8.97787
G1 X149.3 Y120.325 E9.18943
G0 F2625 X149.8 Y119.825
G1 F900 X147.998 Y119.825 E9.24945
G1 X147.996 Y120.097 E9.25851
G1 X147.983 Y120.176 E9.26118
G1 X147.897 Y120.428 E9.27005
G1 X147.826 Y120.534 E9.2743
G1 X147.632 Y120.706 E9.28294
G1 X147.513 Y120.765 E9.28736
G1 X147.262 Y120.813 E9.29587
G1 X147.134 Y120.803 E9.30015
G1 X146.896 Y120.721 E9.30854
G1 X146.789 Y120.65 E9.31281
G1 X146.618 Y120.455 E9.32145
G1 X146.556 Y120.301 E9.32698
G1 X146.504 Y119.066 E9.36816
G1 X146.517 Y118.974 E9.37125
G1 X146.603 Y118.722 E9.38012
G1 X146.675 Y118.616 E9.38439
G1 X146.87 Y118.444 E9.39305
G1 X146.976 Y118.388 E9.39704
G1 X147.207 Y118.332 E9.40496
G1 X147.266 Y118.325 E9.40694
G1 X150.77 Y118.329 E9.52366
G1 X150.851 Y118.342 E9.52639
G1 X151.103 Y118.428 E9.53526
G1 X151.209 Y118.5 E9.53953
G1 X151.381 Y118.695 E9.54819
G1 X151.437 Y118.801 E9.55219
G1 X151.493 Y119.03 E9.56004
