;Generated by Cura LulzBot Edition GCodeWriter Version: 2.6.66
;FLAVOR:RepRap
;TIME:1152
;Filament used: 0.353086m
;Layer height: 0.18
;Generated with Cura_SteamEngine 2.6.66
;This G-Code has been generated specifically for the LulzBot TAZ 5 with standard extruder
M140 S110    ; start bed heating up
G21                      ; set units to Millimetres
G90                      ; absolute positioning
M107                     ; disable fans
M82                      ; set extruder to absolute mode
G28 X0 Y0                ; home X and Y
G28 Z0                   ; home Z
G1 Z15.0 F{travel_speed} ; move extruder up
M117 Heating...                     ; progress indicator message on LCD
M109 R240  ; wait for extruder to reach printing temp
M190 S110    ; wait for bed to reach printing temp
G92 E0                   ; set extruder position to 0
G1 F200 E0               ; prime the nozzle with filament
G92 E0                   ; re-set extruder position to 0
G1 F{travel_speed}       ; set travel speed
M203 X192 Y208 Z3        ; set limits on travel speed
M117 TAZ 5 Printing...   ; progress indicator message on LCD

M221 S100
;LAYER_COUNT:28
;LAYER:0
M107
G0 F2625 X124.558 Y117.8 Z0.424
;TYPE:SKIRT
G1 F900 X125.124 Y117.227 E0.02683
G1 X125.519 Y116.905 E0.0438
G1 X125.967 Y116.591 E0.06203
G1 X126.456 Y116.346 E0.08025
G1 X126.976 Y116.175 E0.09848
G1 X127.515 Y116.081 E0.11671
G1 X127.867 Y116.062 E0.12845
G1 X135.858 Y116.017 E0.39464
G1 X136.127 Y116.025 E0.4036
G1 X140.477 Y116.313 E0.54882
G1 X145.943 Y116.414 E0.73092
G1 X148.62 Y116.351 E0.82012
G1 X153.633 Y116.036 E0.98743
G1 X153.872 Y116.029 E0.9954
G1 X162.032 Y116.038 E1.26721
G1 X162.578 Y116.079 E1.28545
G1 X163.112 Y116.198 E1.30367
G1 X163.623 Y116.394 E1.3219
G1 X163.88 Y116.527 E1.33154
G1 X164.262 Y116.744 E1.34618
G1 X164.717 Y117.049 E1.36442
G1 X165.123 Y117.416 E1.38265
G1 X165.471 Y117.839 E1.4009
G1 X165.754 Y118.307 E1.41912
G1 X165.908 Y118.653 E1.43173
G1 X166.107 Y119.168 E1.45012
G1 X166.266 Y119.692 E1.46836
G1 X166.348 Y120.233 E1.48659
G1 X166.357 Y120.652 E1.50055
G1 X166.334 Y121.303 E1.52225
G1 X166.302 Y121.677 E1.53475
G1 X165.571 Y127.041 E1.71508
G1 X165.142 Y132.452 E1.89589
G1 X165.018 Y137.896 E2.07728
G1 X165.203 Y143.337 E2.25863
G1 X165.698 Y148.793 E2.44111
G1 X166.31 Y153.194 E2.58912
G1 X166.346 Y153.757 E2.60791
G1 X166.337 Y154.471 E2.6317
G1 X166.29 Y155.017 E2.64995
G1 X166.164 Y155.549 E2.66817
G1 X165.84 Y156.289 E2.69508
G1 X165.633 Y156.65 E2.70894
G1 X165.327 Y157.104 E2.72717
G1 X164.958 Y157.508 E2.7454
G1 X164.534 Y157.855 E2.76365
G1 X164.043 Y158.146 E2.78266
G1 X163.655 Y158.338 E2.79708
G1 X163.148 Y158.544 E2.81531
G1 X162.617 Y158.675 E2.83353
G1 X162.003 Y158.727 E2.85406
G1 X154.718 Y158.749 E3.09672
G1 X154.519 Y158.744 E3.10335
G1 X146.797 Y158.356 E3.3609
G1 X141.35 Y158.409 E3.54235
G1 X136.367 Y158.722 E3.70866
G1 X136.128 Y158.729 E3.71663
G1 X127.967 Y158.72 E3.98847
G1 X127.421 Y158.679 E4.00671
G1 X126.887 Y158.56 E4.02494
G1 X126.376 Y158.364 E4.04317
G1 X126.115 Y158.229 E4.05296
G1 X125.734 Y158.012 E4.06756
G1 X125.28 Y157.707 E4.08578
G1 X124.874 Y157.339 E4.10403
G1 X124.438 Y156.784 E4.12754
G1 X124.304 Y156.576 E4.13578
G1 X124.041 Y156.095 E4.15405
G1 X123.852 Y155.582 E4.17226
G1 X123.723 Y154.903 E4.19528
G1 X123.658 Y154.225 E4.21797
G1 X123.646 Y153.678 E4.23619
G1 X123.674 Y153.371 E4.24646
G1 X124.435 Y147.675 E4.43788
G1 X124.861 Y142.257 E4.61891
G1 X124.982 Y136.813 E4.8003
G1 X124.793 Y131.354 E4.98225
G1 X124.299 Y125.937 E5.16344
G1 X123.69 Y121.571 E5.31028
G1 X123.654 Y121.001 E5.32931
G1 X123.664 Y120.28 E5.35333
G1 X123.712 Y119.735 E5.37155
G1 X123.838 Y119.202 E5.3898
G1 X123.931 Y118.942 E5.39899
G1 X124.01 Y118.744 E5.40609
G1 X124.249 Y118.252 E5.42431
G1 X124.558 Y117.8 E5.44255
G0 F2625 X125.439 Y117.615
G1 F900 X125.834 Y117.293 E5.45953
G1 X126.253 Y117.003 E5.4765
G1 X126.713 Y116.782 E5.4935
G1 X127.201 Y116.636 E5.51047
G1 X127.87 Y116.562 E5.53289
G1 X135.861 Y116.517 E5.79908
G1 X136.094 Y116.524 E5.80684
G1 X140.456 Y116.813 E5.95246
G1 X145.945 Y116.915 E6.13533
G1 X148.637 Y116.851 E6.22503
G1 X153.664 Y116.535 E6.39281
G1 X153.872 Y116.529 E6.39974
G1 X162.032 Y116.538 E6.67155
G1 X162.539 Y116.579 E6.6885
G1 X163.035 Y116.698 E6.70549
G1 X163.633 Y116.962 E6.72726
G1 X164.015 Y117.179 E6.7419
G1 X164.437 Y117.465 E6.75888
G1 X164.809 Y117.813 E6.77585
G1 X165.122 Y118.215 E6.79282
G1 X165.442 Y118.834 E6.81603
G1 X165.641 Y119.349 E6.83442
G1 X165.786 Y119.837 E6.85138
G1 X165.854 Y120.342 E6.86835
G1 X165.857 Y120.635 E6.87811
G1 X165.834 Y121.286 E6.89981
G1 X165.806 Y121.61 E6.91064
G1 X165.075 Y126.97 E7.09084
G1 X164.642 Y132.437 E7.27352
G1 X164.518 Y137.902 E7.45561
G1 X164.704 Y143.364 E7.63765
G1 X165.201 Y148.842 E7.82088
G1 X165.815 Y153.262 E7.96952
G1 X165.846 Y153.751 E7.98584
G1 X165.837 Y154.465 E8.00963
G1 X165.79 Y154.972 E8.02659
G1 X165.665 Y155.466 E8.04356
G1 X165.406 Y156.041 E8.06457
G1 X165.199 Y156.402 E8.07843
G1 X164.912 Y156.822 E8.09538
G1 X164.563 Y157.193 E8.11234
G1 X164.159 Y157.505 E8.12935
G1 X163.821 Y157.698 E8.14231
G1 X163.433 Y157.89 E8.15673
G1 X162.96 Y158.079 E8.1737
G1 X162.464 Y158.193 E8.19065
G1 X162.002 Y158.227 E8.20608
G1 X154.717 Y158.249 E8.44875
G1 X154.544 Y158.245 E8.45451
G1 X146.8 Y157.856 E8.71279
G1 X141.333 Y157.909 E8.89491
G1 X136.336 Y158.223 E9.06169
G1 X136.128 Y158.229 E9.06862
G1 X127.967 Y158.22 E9.34047
G1 X127.46 Y158.179 E9.35741
G1 X126.964 Y158.06 E9.3744
G1 X126.363 Y157.794 E9.3963
G1 X125.982 Y157.577 E9.4109
G1 X125.56 Y157.291 E9.42788
G1 X125.188 Y156.943 E9.44485
G1 X124.858 Y156.513 E9.46291
G1 X124.724 Y156.305 E9.47115
G1 X124.482 Y155.856 E9.48814
G1 X124.314 Y155.376 E9.50508
G1 X124.221 Y154.855 E9.52271
G1 X124.156 Y154.177 E9.5454
G1 X124.17 Y153.437 E9.57005
G1 X124.93 Y147.743 E9.7614
G1 X125.361 Y142.271 E9.94424
G1 X125.482 Y136.806 E10.12633
G1 X125.293 Y131.343 E10.30841
G1 X124.794 Y125.866 E10.4916
G1 X124.185 Y121.502 E10.63838
G1 X124.154 Y121.008 E10.65487
G1 X124.164 Y120.287 E10.67889
G1 X124.211 Y119.78 E10.69585
G1 X124.395 Y119.128 E10.71841
G1 X124.474 Y118.93 E10.72552
G1 X124.7 Y118.473 E10.7425
G1 X124.994 Y118.056 E10.75949
G1 X125.439 Y117.615 E10.78036
G1 F600 E9.78036
G0 F2625 X136.483 Y119.182
G0 X137.001 Y119.515
G0 X137.275 Y119.913
G0 X137.804 Y121.086
;TYPE:SUPPORT
G1 F600 E10.78036
G1 F900 X137.802 Y120.832 E10.78882
G1 X152.202 Y120.833 E11.26849
G1 X152.199 Y122.402 E11.32076
G1 X137.803 Y122.402 E11.80029
G1 X137.804 Y121.086 E11.84413
G0 F2625 X138.004 Y122
G1 F900 X152 Y122 E12.31034
G0 F2625 X152 Y122.202
G1 F900 X152 Y121.033 E12.34928
G0 F2625 X150 Y121.033
G1 F900 X150 Y122.202 E12.38822
G0 F2625 X148 Y122.202
G1 F900 X148 Y121.033 E12.42716
G0 F2625 X146 Y121.033
G1 F900 X146 Y122.202 E12.4661
G0 F2625 X144 Y122.202
G1 F900 X144 Y121.033 E12.50504
G0 F2625 X142 Y121.033
G1 F900 X142 Y122.202 E12.54398
G0 F2625 X140 Y122.202
G1 F900 X140 Y121.033 E12.58292
G1 F600 E11.58292
G0 F2625 X153.979 Y119.095
G0 X162.136 Y119.12
G0 X162.662 Y119.334
G0 X163.103 Y119.818
G0 X163.28 Y120.434
G0 X163.253 Y154.535
G0 X162.971 Y155.14
G0 X162.538 Y155.5
G0 X161.896 Y155.663
G0 X153.739 Y155.638
G0 X137.801 Y152.356
G1 F600 E12.58292
G1 F900 X152.197 Y152.356 E13.06246
G1 X152.196 Y153.655 E13.10573
G1 X152.196 Y153.675 E13.10639
G1 X152.198 Y153.926 E13.11475
G1 X137.798 Y153.925 E13.59442
G1 X137.801 Y152.356 E13.64669
G0 F2625 X138 Y152.556
G1 F900 X138 Y153.725 E13.68563
G0 F2625 X140 Y153.725
G1 F900 X140 Y152.556 E13.72457
G0 F2625 X142 Y152.556
G1 F900 X142 Y153.725 E13.76351
G0 F2625 X144 Y153.725
G1 F900 X144 Y152.556 E13.80245
G0 F2625 X146 Y152.556
G1 F900 X146 Y153.725 E13.84139
G0 F2625 X148 Y153.725
G1 F900 X148 Y152.556 E13.88033
G0 F2625 X150 Y152.556
G1 F900 X150 Y153.725 E13.91927
G1 F600 E12.91927
G0 F2625 X150.001 Y151.963
G0 X150.001 Y150.528
G0 X154.076 Y150.478
G0 X154.006 Y150.548
;TYPE:WALL-INNER
G1 F600 E13.91927
G1 F900 X135.993 Y150.547 E14.51928
G1 X135.991 Y154.241 E14.64233
G1 X135.985 Y154.247 E14.64262
G1 X128.181 Y154.246 E14.90257
G1 X128.136 Y154.246 E14.90407
G1 X128.131 Y154.207 E14.90538
G1 X128.136 Y153.798 E14.919
G1 X128.158 Y153.76 E14.9204
G1 X128.966 Y152.381 E14.97364
G1 X129.724 Y150.916 E15.02858
G1 X130.403 Y149.415 E15.08346
G1 X131.003 Y147.88 E15.13836
G1 X131.519 Y146.314 E15.19328
G1 X131.952 Y144.725 E15.24814
G1 X132.301 Y143.114 E15.30305
G1 X132.418 Y142.388 E15.32754
G1 X132.562 Y141.486 E15.35797
G1 X132.737 Y139.848 E15.41284
G1 X132.824 Y138.203 E15.46772
G1 X132.824 Y136.556 E15.52258
G1 X132.737 Y134.91 E15.57748
G1 X132.562 Y133.272 E15.63236
G1 X132.414 Y132.349 E15.66349
G1 X132.301 Y131.644 E15.68728
G1 X131.952 Y130.033 E15.74219
G1 X131.519 Y128.444 E15.79705
G1 X131.003 Y126.878 E15.85197
G1 X130.403 Y125.343 E15.90687
G1 X129.724 Y123.842 E15.96174
G1 X128.965 Y122.379 E16.01664
G1 X128.157 Y120.999 E16.06991
G1 X128.137 Y120.965 E16.07123
G1 X128.131 Y120.921 E16.07271
G1 X128.135 Y120.512 E16.08633
G1 X128.175 Y120.512 E16.08761
G1 X135.758 Y120.511 E16.3402
G1 X135.989 Y120.511 E16.3479
G1 X135.994 Y120.549 E16.34917
G1 X135.994 Y120.78 E16.35687
G1 X135.994 Y124.21 E16.47112
G1 X154.006 Y124.21 E17.07111
G1 X154.015 Y120.511 E17.19432
G1 X161.817 Y120.511 E17.45421
G1 X161.864 Y120.511 E17.45578
G1 X161.869 Y120.548 E17.45702
G1 X161.865 Y120.956 E17.47061
G1 X161.842 Y120.996 E17.47208
G1 X161.035 Y122.38 E17.52544
G1 X160.276 Y123.842 E17.58031
G1 X159.597 Y125.343 E17.63519
G1 X158.997 Y126.878 E17.69009
G1 X158.481 Y128.444 E17.74501
G1 X158.048 Y130.033 E17.79987
G1 X157.699 Y131.644 E17.85478
G1 X157.582 Y132.37 E17.87927
G1 X157.438 Y133.272 E17.9097
G1 X157.263 Y134.91 E17.96457
G1 X157.176 Y136.556 E18.01948
G1 X157.176 Y138.203 E18.07434
G1 X157.263 Y139.848 E18.12921
G1 X157.438 Y141.486 E18.18409
G1 X157.586 Y142.409 E18.21522
G1 X157.699 Y143.114 E18.23901
G1 X158.048 Y144.725 E18.29392
G1 X158.481 Y146.314 E18.34878
G1 X158.997 Y147.88 E18.4037
G1 X159.597 Y149.415 E18.4586
G1 X160.276 Y150.916 E18.51347
G1 X161.035 Y152.38 E18.56841
G1 X161.842 Y153.759 E18.62163
G1 X161.863 Y153.795 E18.62302
G1 X161.869 Y153.835 E18.62436
G1 X161.865 Y154.246 E18.63805
G1 X161.823 Y154.246 E18.63939
G1 X154.011 Y154.247 E18.89962
G1 X154.006 Y150.548 E19.02283
G0 F2625 X154.076 Y150.478
G0 X156.161 Y149.56
G0 X156.149 Y149.461
G1 F900 X156.391 Y149.4 E19.03114
G1 X156.6 Y149.298 E19.03889
G1 X156.775 Y149.154 E19.04644
G1 X156.919 Y148.979 E19.05399
G1 X157.024 Y148.764 E19.06196
G1 X157.075 Y148.545 E19.06945
G1 X157.087 Y148.369 E19.07533
G1 X157.087 Y142.421 E19.27346
G1 X157.087 Y141.486 E19.29998
G1 X157.087 Y139.848 E19.3287
G1 X157.087 Y138.204 E19.34319
G1 X157.086 Y136.557 E19.35304
G1 X157.085 Y134.911 E19.36784
G1 X157.084 Y133.273 E19.3971
G1 X157.084 Y132.359 E19.42312
G1 X157.082 Y126.23 E19.62728
G1 X157.021 Y125.988 E19.63559
G1 X156.919 Y125.779 E19.64334
G1 X156.775 Y125.604 E19.65089
G1 X156.6 Y125.46 E19.65844
G1 X156.385 Y125.355 E19.66641
G1 X156.166 Y125.304 E19.6739
G1 X155.99 Y125.292 E19.67977
G1 X133.851 Y125.297 E20.41723
G1 X133.609 Y125.358 E20.42554
G1 X133.4 Y125.46 E20.43329
G1 X133.225 Y125.604 E20.44084
G1 X133.081 Y125.779 E20.44839
G1 X132.976 Y125.994 E20.45636
G1 X132.925 Y126.213 E20.46385
G1 X132.913 Y126.389 E20.46972
G1 X132.913 Y132.337 E20.66785
G1 X132.913 Y133.272 E20.69438
G1 X132.913 Y134.91 E20.7231
G1 X132.913 Y136.555 E20.7376
G1 X132.914 Y138.202 E20.74744
G1 X132.915 Y139.847 E20.76224
G1 X132.916 Y141.485 E20.7915
G1 X132.916 Y142.399 E20.81752
G1 X132.918 Y148.528 E21.02168
G1 X132.979 Y148.77 E21.02999
G1 X133.081 Y148.979 E21.03774
G1 X133.225 Y149.154 E21.04529
G1 X133.4 Y149.298 E21.05283
G1 X133.615 Y149.403 E21.0608
G1 X133.834 Y149.454 E21.06829
G1 X134.01 Y149.466 E21.07417
G1 X156.149 Y149.461 E21.81163
G0 F2625 X156.087 Y148.961
;TYPE:WALL-OUTER
G1 F900 X156.218 Y148.928 E21.81613
G1 X156.328 Y148.874 E21.82021
G1 X156.42 Y148.799 E21.82416
G1 X156.495 Y148.707 E21.82812
G1 X156.55 Y148.595 E21.83228
G1 X156.579 Y148.471 E21.83652
G1 X156.587 Y148.352 E21.84049
G1 X156.582 Y126.292 E22.57532
G1 X156.549 Y126.161 E22.57982
G1 X156.495 Y126.051 E22.5839
G1 X156.42 Y125.959 E22.58785
G1 X156.328 Y125.884 E22.59181
G1 X156.216 Y125.829 E22.59596
G1 X156.092 Y125.8 E22.6002
G1 X155.973 Y125.792 E22.60418
G1 X133.913 Y125.797 E23.339
G1 X133.782 Y125.83 E23.3435
G1 X133.672 Y125.884 E23.34759
G1 X133.58 Y125.959 E23.35154
G1 X133.505 Y126.051 E23.35549
G1 X133.45 Y126.163 E23.35965
G1 X133.421 Y126.287 E23.36389
G1 X133.413 Y126.406 E23.36786
G1 X133.418 Y148.466 E24.10269
G1 X133.451 Y148.597 E24.10719
G1 X133.505 Y148.707 E24.11127
G1 X133.58 Y148.799 E24.11523
G1 X133.672 Y148.874 E24.11918
G1 X133.784 Y148.929 E24.12334
G1 X133.908 Y148.958 E24.12758
G1 X134.027 Y148.966 E24.13155
G1 X156.087 Y148.961 E24.86638
G0 F2625 X156.218 Y148.928
G0 X156.321 Y148.878
G0 X156.583 Y149.418
G0 X153.507 Y150.448
G0 X153.506 Y151.048
G1 F900 X136.743 Y151.047 E25.42476
G1 X136.493 Y151.047 E25.43309
G1 X136.493 Y151.297 E25.43848
G1 X136.494 Y154.241 E25.53654
G1 X136.479 Y154.365 E25.5407
G1 X136.434 Y154.483 E25.54491
G1 X136.368 Y154.584 E25.54893
G1 X136.248 Y154.682 E25.55409
G1 X136.166 Y154.716 E25.55705
G1 X136.072 Y154.741 E25.56029
G1 X135.988 Y154.749 E25.5631
G1 X128.137 Y154.749 E25.82462
G1 X128.05 Y154.741 E25.82753
G1 X127.969 Y154.72 E25.83031
G1 X127.873 Y154.679 E25.83379
G1 X127.757 Y154.582 E25.83883
G1 X127.689 Y154.48 E25.84291
G1 X127.647 Y154.367 E25.84693
G1 X127.631 Y154.239 E25.85122
G1 X127.632 Y153.811 E25.86548
G1 X127.642 Y153.706 E25.86899
G1 X127.669 Y153.609 E25.87235
G1 X127.713 Y153.522 E25.87559
G1 X128.528 Y152.139 E25.92907
G1 X129.274 Y150.698 E25.98312
G1 X129.942 Y149.221 E26.03712
G1 X130.532 Y147.711 E26.09112
G1 X131.04 Y146.17 E26.14517
G1 X131.466 Y144.606 E26.19916
G1 X131.809 Y143.021 E26.25318
G1 X132.066 Y141.42 E26.30719
G1 X132.238 Y139.808 E26.36119
G1 X132.324 Y138.19 E26.41517
G1 X132.324 Y136.569 E26.46916
G1 X132.238 Y134.95 E26.52317
G1 X132.066 Y133.338 E26.57717
G1 X131.809 Y131.737 E26.63118
G1 X131.466 Y130.152 E26.6852
G1 X131.04 Y128.588 E26.7392
G1 X130.532 Y127.047 E26.79324
G1 X129.942 Y125.537 E26.84725
G1 X129.274 Y124.06 E26.90124
G1 X128.527 Y122.621 E26.95525
G1 X127.71 Y121.228 E27.00904
G1 X127.669 Y121.147 E27.01207
G1 X127.642 Y121.052 E27.01536
G1 X127.631 Y120.946 E27.01891
G1 X127.63 Y120.522 E27.03303
G1 X127.647 Y120.39 E27.03746
G1 X127.69 Y120.276 E27.04152
G1 X127.757 Y120.174 E27.04559
G1 X127.877 Y120.076 E27.05075
G1 X127.959 Y120.042 E27.05371
G1 X128.053 Y120.017 E27.05695
G1 X128.137 Y120.009 E27.05976
G1 X135.988 Y120.009 E27.32128
G1 X136.075 Y120.017 E27.32419
G1 X136.156 Y120.038 E27.32697
G1 X136.252 Y120.079 E27.33045
G1 X136.368 Y120.176 E27.33549
G1 X136.436 Y120.278 E27.33957
G1 X136.478 Y120.391 E27.34359
G1 X136.494 Y120.519 E27.34788
G1 X136.494 Y123.71 E27.45418
G1 X153.506 Y123.71 E28.02085
G1 X153.506 Y120.517 E28.12721
G1 X153.521 Y120.393 E28.13137
G1 X153.566 Y120.275 E28.13558
G1 X153.632 Y120.174 E28.1396
G1 X153.752 Y120.076 E28.14476
G1 X153.834 Y120.042 E28.14772
G1 X153.928 Y120.017 E28.15096
G1 X154.012 Y120.009 E28.15377
G1 X161.863 Y120.009 E28.41529
G1 X161.95 Y120.017 E28.4182
G1 X162.031 Y120.038 E28.42099
G1 X162.127 Y120.079 E28.42446
G1 X162.243 Y120.176 E28.4295
G1 X162.311 Y120.278 E28.43358
G1 X162.353 Y120.391 E28.4376
G1 X162.369 Y120.519 E28.4419
G1 X162.368 Y120.948 E28.45619
G1 X162.358 Y121.052 E28.45967
G1 X162.331 Y121.149 E28.46302
G1 X161.473 Y122.621 E28.51977
G1 X160.726 Y124.06 E28.57378
G1 X160.058 Y125.537 E28.62778
G1 X159.468 Y127.047 E28.68178
G1 X158.96 Y128.588 E28.73583
G1 X158.534 Y130.152 E28.78982
G1 X158.191 Y131.737 E28.84384
G1 X157.934 Y133.338 E28.89786
G1 X157.762 Y134.95 E28.95186
G1 X157.676 Y136.569 E29.00586
G1 X157.676 Y138.19 E29.05986
G1 X157.762 Y139.808 E29.11383
G1 X157.934 Y141.42 E29.16783
G1 X158.191 Y143.021 E29.22185
