;Generated by Cura LulzBot Edition GCodeWriter Version: 2.6.66
;FLAVOR:RepRap
;TIME:3182
;Filament used: 0.648922m
;Layer height: 0.385
;Generated with Cura_SteamEngine 2.6.66
;This G-Code has been generated specifically for the LulzBot TAZ 5 with standard extruder
M140 S110    ; start bed heating up
G21                      ; set units to Millimetres
G90                      ; absolute positioning
M107                     ; disable fans
M82                      ; set extruder to absolute mode
G28 X0 Y0                ; home X and Y
G28 Z0                   ; home Z
G1 Z15.0 F{travel_speed} ; move extruder up
M117 Heating...                     ; progress indicator message on LCD
M109 R240  ; wait for extruder to reach printing temp
M190 S110    ; wait for bed to reach printing temp
G92 E0                   ; set extruder position to 0
G1 F200 E0               ; prime the nozzle with filament
G92 E0                   ; re-set extruder position to 0
G1 F{travel_speed}       ; set travel speed
M203 X192 Y208 Z3        ; set limits on travel speed
M117 TAZ 5 Printing...   ; progress indicator message on LCD

M221 S100
;LAYER_COUNT:14
;LAYER:0
M107
M205 X12
G0 F600 X123.073 Y111.333 Z0.385
;TYPE:SKIRT
G1 X123.626 Y110.788 E0.01804
G1 X123.952 Y110.508 E0.02803
G1 X124.483 Y110.104 E0.04353
G1 X125.059 Y109.766 E0.05905
G1 X125.672 Y109.5 E0.07457
G1 X126.311 Y109.309 E0.09007
G1 X126.969 Y109.195 E0.10558
G1 X127.594 Y109.161 E0.12013
G1 X162.573 Y109.209 E0.93286
G1 X163.239 Y109.25 E0.94837
G1 X163.896 Y109.37 E0.96389
G1 X164.534 Y109.568 E0.97941
G1 X165.143 Y109.841 E0.99491
G1 X165.716 Y110.184 E1.01043
G1 X166.243 Y110.594 E1.02594
G1 X166.737 Y111.084 E1.04211
G1 X166.903 Y111.271 E1.04792
G1 X167.315 Y111.796 E1.06343
G1 X167.662 Y112.366 E1.07893
G1 X167.938 Y112.974 E1.09445
G1 X168.14 Y113.611 E1.10997
G1 X168.264 Y114.267 E1.12549
G1 X168.309 Y114.936 E1.14106
G1 X168.342 Y119.816 E1.25445
G1 X168.278 Y120.699 E1.27502
G1 X167.622 Y124.976 E1.37556
G1 X167.065 Y130.281 E1.4995
G1 X166.808 Y135.634 E1.62402
G1 X166.854 Y140.977 E1.74817
G1 X167.2 Y146.293 E1.87195
G1 X167.854 Y151.645 E1.99723
G1 X168.265 Y154.154 E2.0563
G1 X168.338 Y155.058 E2.07737
G1 X168.335 Y159.942 E2.19085
G1 X168.295 Y160.609 E2.20638
G1 X168.175 Y161.266 E2.2219
G1 X167.978 Y161.904 E2.23741
G1 X167.705 Y162.513 E2.25292
G1 X167.481 Y162.906 E2.26343
G1 X167.324 Y163.156 E2.27029
G1 X166.935 Y163.699 E2.28581
G1 X166.485 Y164.192 E2.30132
G1 X165.979 Y164.627 E2.31682
G1 X165.424 Y164.999 E2.33234
G1 X164.829 Y165.302 E2.34786
G1 X164.202 Y165.532 E2.36338
G1 X163.553 Y165.685 E2.37887
G1 X163.113 Y165.743 E2.38918
G1 X162.226 Y165.825 E2.40988
G1 X161.712 Y165.849 E2.42183
G1 X127.596 Y165.84 E3.21452
G1 X126.929 Y165.8 E3.23004
G1 X126.272 Y165.68 E3.24556
G1 X125.636 Y165.484 E3.26102
G1 X125.439 Y165.41 E3.26591
G1 X124.829 Y165.138 E3.28143
G1 X124.256 Y164.795 E3.29695
G1 X123.728 Y164.387 E3.31245
G1 X123.119 Y163.764 E3.3327
G1 X122.992 Y163.612 E3.3373
G1 X122.596 Y163.075 E3.3528
G1 X122.266 Y162.495 E3.36831
G1 X122.008 Y161.879 E3.38382
G1 X121.826 Y161.237 E3.39933
G1 X121.721 Y160.577 E3.41486
G1 X121.695 Y160.075 E3.42654
G1 X121.66 Y155.115 E3.54178
G1 X121.715 Y154.297 E3.56083
G1 X122.7 Y147.313 E3.72471
G1 X123.103 Y142.005 E3.8484
G1 X123.206 Y136.663 E3.97254
G1 X123.006 Y131.321 E4.09675
G1 X122.506 Y126.013 E4.22063
G1 X121.727 Y120.791 E4.3433
G1 X121.666 Y119.95 E4.36289
G1 X121.682 Y115.001 E4.47789
G1 X121.724 Y114.335 E4.49339
G1 X121.846 Y113.678 E4.50892
G1 X122.045 Y113.041 E4.52442
G1 X122.318 Y112.432 E4.53993
G1 X122.663 Y111.86 E4.55545
G1 X123.073 Y111.333 E4.57096
G1 F480 E4.07096
G1 Z1.385
G0 F600 X123.453 Y111.487 Z1.385
G1 Z0.385
G1 F480 E4.57096
G1 F600 X123.876 Y111.08 E4.59791
G1 X124.202 Y110.8 E4.60789
G1 X124.716 Y110.411 E4.62287
G1 X125.274 Y110.089 E4.63784
G1 X125.868 Y109.838 E4.65282
G1 X126.488 Y109.663 E4.66779
G1 X127.125 Y109.567 E4.68276
G1 X127.593 Y109.546 E4.69364
G1 X162.572 Y109.594 E5.50638
G1 X163.215 Y109.635 E5.52135
G1 X163.848 Y109.755 E5.53632
G1 X164.461 Y109.953 E5.55129
G1 X165.045 Y110.225 E5.56626
G1 X165.591 Y110.567 E5.58122
G1 X166.09 Y110.974 E5.59619
G1 X166.449 Y111.34 E5.6081
G1 X166.615 Y111.527 E5.61391
G1 X167.012 Y112.034 E5.62887
G1 X167.343 Y112.587 E5.64385
G1 X167.603 Y113.176 E5.6588
G1 X167.788 Y113.793 E5.67377
G1 X167.895 Y114.428 E5.68873
G1 X167.924 Y114.939 E5.70063
G1 X167.957 Y119.819 E5.81401
G1 X167.897 Y120.641 E5.83316
G1 X167.244 Y124.9 E5.93328
G1 X166.68 Y130.275 E6.05885
G1 X166.423 Y135.619 E6.18316
G1 X166.469 Y140.988 E6.30792
G1 X166.817 Y146.33 E6.4323
G1 X167.474 Y151.703 E6.55807
G1 X167.885 Y154.216 E6.61724
G1 X167.953 Y155.058 E6.63686
G1 X167.95 Y159.942 E6.75034
G1 X167.91 Y160.585 E6.76531
G1 X167.79 Y161.218 E6.78028
G1 X167.593 Y161.832 E6.79527
G1 X167.321 Y162.416 E6.81023
G1 X167.155 Y162.701 E6.8179
G1 X166.998 Y162.951 E6.82476
G1 X166.622 Y163.474 E6.83972
G1 X166.184 Y163.947 E6.8547
G1 X165.691 Y164.362 E6.86967
G1 X165.151 Y164.712 E6.88463
G1 X164.571 Y164.993 E6.8996
G1 X163.961 Y165.2 E6.91457
G1 X163.078 Y165.36 E6.93542
G1 X162.191 Y165.442 E6.95612
G1 X161.712 Y165.464 E6.96726
G1 X127.596 Y165.455 E7.75994
G1 X126.953 Y165.415 E7.77491
G1 X126.32 Y165.295 E7.78988
G1 X125.771 Y165.123 E7.80325
G1 X125.574 Y165.049 E7.80814
G1 X124.986 Y164.786 E7.8231
G1 X124.435 Y164.452 E7.83807
G1 X123.93 Y164.052 E7.85304
G1 X123.415 Y163.518 E7.87028
G1 X123.288 Y163.366 E7.87488
G1 X122.906 Y162.847 E7.88986
G1 X122.592 Y162.284 E7.90483
G1 X122.35 Y161.687 E7.9198
G1 X122.183 Y161.065 E7.93477
G1 X122.095 Y160.427 E7.94973
G1 X122.08 Y160.073 E7.95796
G1 X122.045 Y155.113 E8.07321
G1 X122.096 Y154.351 E8.09095
G1 X123.084 Y147.35 E8.25523
G1 X123.488 Y142.024 E8.37934
G1 X123.591 Y136.656 E8.50409
G1 X123.391 Y131.306 E8.62848
G1 X122.887 Y125.956 E8.75334
G1 X122.108 Y120.734 E8.87601
G1 X122.051 Y119.951 E8.89426
G1 X122.067 Y115.002 E9.00925
G1 X122.109 Y114.359 E9.02422
G1 X122.23 Y113.727 E9.03917
G1 X122.429 Y113.114 E9.05414
G1 X122.702 Y112.53 E9.06912
G1 X123.045 Y111.985 E9.08408
G1 X123.453 Y111.487 E9.09904
G1 F480 E8.59904
G1 Z1.385
G0 F600 X128.572 Y116.073 Z1.385
;TYPE:WALL-INNER
G1 Z0.385
G1 F480 E9.09904
G1 F300 X133.407 Y116.074 E9.21376
G1 X133.091 Y116.215 E9.2218
G1 X132.864 Y116.339 E9.22781
G1 X132.642 Y116.476 E9.23387
G1 X132.421 Y116.634 E9.24019
G1 X132.219 Y116.802 E9.24629
G1 X132.025 Y116.98 E9.25241
G1 X131.844 Y117.172 E9.25854
G1 X131.677 Y117.369 E9.26454
G1 X131.516 Y117.584 E9.27078
G1 X131.373 Y117.809 E9.27697
G1 X131.246 Y118.033 E9.28296
G1 X131.131 Y118.269 E9.28906
G1 X131.029 Y118.516 E9.29527
G1 X130.946 Y118.766 E9.30139
G1 X130.875 Y119.02 E9.30751
G1 X130.822 Y119.28 E9.31368
G1 X130.786 Y119.539 E9.31976
G1 X130.765 Y119.802 E9.32589
G1 X130.762 Y120.069 E9.33209
G1 X130.775 Y120.329 E9.33814
G1 X130.801 Y120.591 E9.34426
G1 X130.849 Y120.852 E9.35042
G1 X130.908 Y121.106 E9.35648
G1 X130.992 Y121.382 E9.36318
G1 X131.177 Y121.831 E9.37447
G1 X131.31 Y122.084 E9.38111
G1 X131.445 Y122.305 E9.38713
G1 X131.593 Y122.522 E9.39323
G1 X131.757 Y122.728 E9.39935
G1 X131.935 Y122.929 E9.40559
G1 X132.124 Y123.112 E9.4117
G1 X132.32 Y123.284 E9.41776
G1 X132.531 Y123.444 E9.42391
G1 X132.746 Y123.59 E9.42995
G1 X132.976 Y123.726 E9.43616
G1 X133.211 Y123.842 E9.44225
G1 X133.453 Y123.948 E9.44838
G1 X133.705 Y124.036 E9.45459
G1 X133.955 Y124.107 E9.46062
G1 X134.211 Y124.164 E9.46672
G1 X134.477 Y124.206 E9.47298
G1 X134.739 Y124.229 E9.47909
G1 X135 Y124.238 E9.48515
G1 X135.261 Y124.229 E9.49122
G1 X135.523 Y124.206 E9.49733
G1 X135.789 Y124.164 E9.50359
G1 X136.045 Y124.107 E9.50968
G1 X136.295 Y124.036 E9.51572
G1 X136.547 Y123.948 E9.52192
G1 X136.789 Y123.842 E9.52806
G1 X137.024 Y123.726 E9.53415
G1 X137.254 Y123.59 E9.54036
G1 X137.469 Y123.444 E9.5464
G1 X137.68 Y123.284 E9.55255
G1 X137.876 Y123.112 E9.55861
G1 X138.065 Y122.929 E9.56472
G1 X138.243 Y122.728 E9.57096
G1 X138.407 Y122.522 E9.57708
G1 X138.555 Y122.307 E9.58314
G1 X138.69 Y122.087 E9.58914
G1 X138.816 Y121.849 E9.5954
G1 X138.924 Y121.604 E9.60162
G1 X139.015 Y121.359 E9.60769
G1 X139.092 Y121.106 E9.61384
G1 X139.151 Y120.852 E9.6199
G1 X139.199 Y120.591 E9.62606
G1 X139.225 Y120.329 E9.63218
G1 X139.238 Y120.069 E9.63823
G1 X139.235 Y119.802 E9.64443
G1 X139.214 Y119.539 E9.65056
G1 X139.178 Y119.28 E9.65664
G1 X139.125 Y119.02 E9.6628
G1 X139.054 Y118.766 E9.66893
G1 X138.971 Y118.516 E9.67505
G1 X138.869 Y118.269 E9.68126
G1 X138.754 Y118.033 E9.68736
G1 X138.627 Y117.809 E9.69334
G1 X138.484 Y117.584 E9.69954
G1 X138.323 Y117.369 E9.70578
G1 X138.156 Y117.172 E9.71178
G1 X137.975 Y116.98 E9.71791
G1 X137.781 Y116.802 E9.72403
G1 X137.579 Y116.634 E9.73013
G1 X137.358 Y116.476 E9.73644
G1 X137.136 Y116.339 E9.74251
G1 X136.908 Y116.215 E9.74854
G1 X136.666 Y116.101 E9.75475
G1 X136.595 Y116.074 E9.75652
G1 X153.399 Y116.077 E10.14696
G1 X153.091 Y116.215 E10.1548
G1 X152.864 Y116.339 E10.16081
G1 X152.642 Y116.476 E10.16687
G1 X152.421 Y116.634 E10.17318
G1 X152.219 Y116.802 E10.17929
G1 X152.025 Y116.98 E10.1854
G1 X151.844 Y117.172 E10.19154
G1 X151.677 Y117.369 E10.19754
G1 X151.516 Y117.584 E10.20378
G1 X151.373 Y117.809 E10.20997
G1 X151.246 Y118.033 E10.21595
G1 X151.131 Y118.269 E10.22205
G1 X151.029 Y118.516 E10.22826
G1 X150.946 Y118.766 E10.23438
G1 X150.875 Y119.02 E10.24051
G1 X150.822 Y119.28 E10.24668
G1 X150.786 Y119.539 E10.25275
G1 X150.765 Y119.802 E10.25888
G1 X150.762 Y120.069 E10.26509
G1 X150.775 Y120.329 E10.27114
G1 X150.801 Y120.591 E10.27725
G1 X150.849 Y120.852 E10.28342
G1 X150.908 Y121.106 E10.28948
G1 X150.992 Y121.382 E10.29618
G1 X151.177 Y121.831 E10.30746
G1 X151.31 Y122.084 E10.31411
G1 X151.445 Y122.305 E10.32012
G1 X151.593 Y122.522 E10.32623
G1 X151.757 Y122.728 E10.33234
G1 X151.935 Y122.929 E10.33858
G1 X152.124 Y123.112 E10.34469
G1 X152.32 Y123.284 E10.35075
G1 X152.531 Y123.444 E10.35691
G1 X152.746 Y123.59 E10.36294
G1 X152.976 Y123.726 E10.36915
G1 X153.211 Y123.842 E10.37524
G1 X153.453 Y123.948 E10.38138
G1 X153.705 Y124.036 E10.38758
G1 X153.955 Y124.107 E10.39362
G1 X154.211 Y124.164 E10.39972
G1 X154.477 Y124.206 E10.40597
G1 X154.739 Y124.229 E10.41208
G1 X155 Y124.238 E10.41815
G1 X155.261 Y124.229 E10.42422
G1 X155.523 Y124.206 E10.43033
G1 X155.789 Y124.164 E10.43659
G1 X156.045 Y124.107 E10.44268
G1 X156.295 Y124.036 E10.44872
G1 X156.547 Y123.948 E10.45492
G1 X156.789 Y123.842 E10.46106
G1 X157.024 Y123.726 E10.46715
G1 X157.254 Y123.59 E10.47336
G1 X157.469 Y123.444 E10.4794
G1 X157.68 Y123.284 E10.48555
G1 X157.876 Y123.112 E10.49161
G1 X158.065 Y122.929 E10.49772
G1 X158.243 Y122.728 E10.50396
G1 X158.407 Y122.522 E10.51008
G1 X158.555 Y122.307 E10.51614
G1 X158.69 Y122.087 E10.52214
G1 X158.816 Y121.849 E10.5284
G1 X158.924 Y121.604 E10.53462
G1 X159.015 Y121.359 E10.54069
G1 X159.092 Y121.106 E10.54683
G1 X159.151 Y120.852 E10.55289
G1 X159.199 Y120.591 E10.55906
G1 X159.225 Y120.329 E10.56518
G1 X159.238 Y120.069 E10.57122
G1 X159.235 Y119.802 E10.57743
G1 X159.214 Y119.539 E10.58356
G1 X159.178 Y119.28 E10.58963
G1 X159.125 Y119.02 E10.5958
G1 X159.054 Y118.766 E10.60193
G1 X158.971 Y118.516 E10.60805
G1 X158.869 Y118.269 E10.61426
G1 X158.754 Y118.033 E10.62036
G1 X158.627 Y117.809 E10.62634
G1 X158.484 Y117.584 E10.63253
G1 X158.323 Y117.369 E10.63878
G1 X158.156 Y117.172 E10.64478
G1 X157.975 Y116.98 E10.65091
G1 X157.781 Y116.802 E10.65702
G1 X157.579 Y116.634 E10.66313
G1 X157.358 Y116.476 E10.66944
G1 X157.136 Y116.339 E10.6755
G1 X156.908 Y116.215 E10.68153
G1 X156.603 Y116.077 E10.68931
G1 X161.427 Y116.078 E10.8014
G1 X161.425 Y119.653 E10.88446
G1 X161.026 Y120.374 E10.90361
G1 X160.39 Y121.626 E10.93624
G1 X160.092 Y122.261 E10.95254
G1 X159.805 Y122.898 E10.96877
G1 X159.53 Y123.542 E10.98504
G1 X159.267 Y124.195 E11.0014
G1 X159.02 Y124.848 E11.01762
G1 X158.781 Y125.506 E11.03388
G1 X158.558 Y126.173 E11.05022
G1 X158.347 Y126.839 E11.06646
G1 X158.149 Y127.511 E11.08273
G1 X157.963 Y128.186 E11.099
G1 X157.736 Y129.098 E11.12084
G1 X157.736 Y126.885 E11.17226
G1 X157.693 Y126.523 E11.18073
G1 X157.589 Y126.149 E11.18975
G1 X157.407 Y125.793 E11.19904
G1 X157.232 Y125.547 E11.20605
G1 X156.992 Y125.306 E11.21396
G1 X156.807 Y125.159 E11.21945
G1 X156.574 Y125.021 E11.22574
G1 X156.282 Y124.89 E11.23317
G1 X155.858 Y124.783 E11.24333
G1 X155.536 Y124.761 E11.25083
G1 X134.308 Y124.766 E11.74406
G1 X133.97 Y124.818 E11.75201
G1 X133.641 Y124.921 E11.76002
G1 X133.329 Y125.07 E11.76805
G1 X132.996 Y125.313 E11.77763
G1 X132.799 Y125.517 E11.78422
G1 X132.659 Y125.693 E11.78945
G1 X132.521 Y125.926 E11.79574
G1 X132.39 Y126.218 E11.80318
G1 X132.283 Y126.642 E11.81334
G1 X132.261 Y126.964 E11.82083
G1 X132.261 Y129.083 E11.87007
G1 X132.115 Y128.488 E11.8843
G1 X131.935 Y127.811 E11.90058
G1 X131.742 Y127.137 E11.91687
G1 X131.537 Y126.467 E11.93315
G1 X131.32 Y125.799 E11.94947
G1 X130.844 Y124.481 E11.98203
G1 X130.587 Y123.831 E11.99827
G1 X130.318 Y123.184 E12.01455
G1 X130.036 Y122.541 E12.03086
G1 X129.743 Y121.906 E12.04711
G1 X129.438 Y121.276 E12.06338
G1 X129.118 Y120.651 E12.07969
G1 X128.575 Y119.646 E12.10623
G1 X128.572 Y116.073 E12.18925
G1 F480 E11.68925
G1 Z1.385
G0 F600 X132.263 Y145.912 Z1.385
G1 Z0.385
G1 F480 E12.18925
G1 F300 X132.263 Y148.232 E12.24795
G1 X132.31 Y148.616 E12.25694
G1 X132.405 Y148.96 E12.26523
G1 X132.571 Y149.316 E12.27436
G1 X132.731 Y149.559 E12.28112
G1 X132.997 Y149.845 E12.29019
G1 X133.512 Y150.238 E12.30525
G1 X156.486 Y150.237 E12.83905
G1 X157.04 Y149.814 E12.85524
G1 X157.295 Y149.523 E12.86423
G1 X157.48 Y149.225 E12.87238
G1 X157.63 Y148.85 E12.88176
G1 X157.712 Y148.485 E12.89046
G1 X157.736 Y148.173 E12.89773
G1 X157.736 Y145.902 E12.95049
G1 X157.983 Y146.892 E12.9742
G1 X158.171 Y147.567 E12.99048
G1 X158.37 Y148.238 E13.00674
G1 X158.584 Y148.91 E13.02313
G1 X159.047 Y150.227 E13.05557
G1 X159.299 Y150.884 E13.07192
G1 X159.564 Y151.532 E13.08818
G1 X159.839 Y152.176 E13.10445
G1 X160.129 Y152.815 E13.12076
G1 X160.428 Y153.447 E13.137
G1 X160.739 Y154.074 E13.15327
G1 X161.067 Y154.699 E13.16967
G1 X161.425 Y155.346 E13.18685
G1 X161.422 Y158.925 E13.27
G1 X156.584 Y158.925 E13.38242
G1 X156.768 Y158.854 E13.387
G1 X157.024 Y158.724 E13.39367
G1 X157.253 Y158.591 E13.39982
G1 X157.472 Y158.444 E13.40595
G1 X157.68 Y158.284 E13.41205
G1 X157.879 Y158.111 E13.41817
G1 X158.066 Y157.926 E13.42429
G1 X158.241 Y157.731 E13.43037
G1 X158.404 Y157.526 E13.43646
G1 X158.556 Y157.309 E13.44262
G1 X158.695 Y157.078 E13.44888
G1 X158.816 Y156.844 E13.455
G1 X158.921 Y156.61 E13.46096
G1 X159.016 Y156.361 E13.46715
G1 X159.093 Y156.102 E13.47343
G1 X159.152 Y155.848 E13.47949
G1 X159.199 Y155.588 E13.48563
G1 X159.225 Y155.328 E13.4917
G1 X159.238 Y155.069 E13.49772
G1 X159.235 Y154.803 E13.50391
G1 X159.214 Y154.54 E13.51004
G1 X159.178 Y154.28 E13.51613
G1 X159.125 Y154.022 E13.52225
G1 X159.05 Y153.745 E13.52892
G1 X158.879 Y153.293 E13.54015
G1 X158.755 Y153.033 E13.54684
G1 X158.624 Y152.803 E13.55299
G1 X158.484 Y152.586 E13.55899
G1 X158.326 Y152.372 E13.56517
G1 X158.156 Y152.171 E13.57129
G1 X157.975 Y151.98 E13.57741
G1 X157.779 Y151.8 E13.58359
G1 X157.576 Y151.633 E13.5897
G1 X157.361 Y151.479 E13.59584
G1 X157.138 Y151.339 E13.60196
G1 X156.906 Y151.214 E13.60808
G1 X156.668 Y151.103 E13.61418
G1 X156.422 Y151.006 E13.62033
G1 X156.169 Y150.926 E13.62649
G1 X155.913 Y150.861 E13.63263
G1 X155.65 Y150.811 E13.63885
G1 X155.394 Y150.782 E13.64484
G1 X155.135 Y150.763 E13.65087
G1 X154.848 Y150.763 E13.65754
G1 X154.365 Y150.808 E13.66881
G1 X154.088 Y150.861 E13.67536
G1 X153.832 Y150.926 E13.6815
G1 X153.578 Y151.006 E13.68769
G1 X153.332 Y151.103 E13.69383
G1 X153.094 Y151.214 E13.69993
G1 X152.862 Y151.339 E13.70606
G1 X152.639 Y151.479 E13.71217
G1 X152.424 Y151.633 E13.71832
G1 X152.221 Y151.8 E13.72443
G1 X152.025 Y151.98 E13.73061
G1 X151.844 Y152.171 E13.73672
G1 X151.674 Y152.372 E13.74284
G1 X151.516 Y152.586 E13.74902
