;Generated by Cura LulzBot Edition GCodeWriter Version: 2.6.66
;FLAVOR:RepRap
;TIME:2345
;Filament used: 0.651637m
;Layer height: 0.385
;Generated with Cura_SteamEngine 2.6.66
;This G-Code has been generated specifically for the LulzBot TAZ 5 with standard extruder
M140 S110    ; start bed heating up
G21                      ; set units to Millimetres
G90                      ; absolute positioning
M107                     ; disable fans
M82                      ; set extruder to absolute mode
G28 X0 Y0                ; home X and Y
G28 Z0                   ; home Z
G1 Z15.0 F{travel_speed} ; move extruder up
M117 Heating...                     ; progress indicator message on LCD
M109 R240  ; wait for extruder to reach printing temp
M190 S110    ; wait for bed to reach printing temp
G92 E0                   ; set extruder position to 0
G1 F200 E0               ; prime the nozzle with filament
G92 E0                   ; re-set extruder position to 0
G1 F{travel_speed}       ; set travel speed
M203 X192 Y208 Z3        ; set limits on travel speed
M117 TAZ 5 Printing...   ; progress indicator message on LCD

M221 S100
;LAYER_COUNT:12
;LAYER:0
M107
M205 X12
G1 F480 E-0.5
G0 F600 X123.244 Y111.126 Z0.385
G0 X123.449 Y110.913
;TYPE:SKIRT
G1 F480 E0
G1 F600 X123.94 Y110.46 E0.01552
G1 X124.482 Y110.07 E0.03104
G1 X125.066 Y109.747 E0.04654
G1 X125.685 Y109.496 E0.06206
G1 X126.329 Y109.321 E0.07757
G1 X127.141 Y109.213 E0.0966
G1 X127.992 Y109.163 E0.11641
G1 X128.327 Y109.153 E0.1242
G1 X162.545 Y109.202 E0.91925
G1 X163.211 Y109.243 E0.93475
G1 X163.868 Y109.363 E0.95027
G1 X164.506 Y109.561 E0.96579
G1 X165.115 Y109.834 E0.9813
G1 X165.688 Y110.177 E0.99682
G1 X165.991 Y110.4 E1.00556
G1 X166.133 Y110.512 E1.00976
G1 X166.632 Y110.956 E1.02528
G1 X167.074 Y111.457 E1.0408
G1 X167.453 Y112.007 E1.05632
G1 X167.763 Y112.598 E1.07183
G1 X167.907 Y112.947 E1.0806
G1 X167.987 Y113.162 E1.08593
G1 X168.182 Y113.8 E1.10143
G1 X168.299 Y114.458 E1.11696
G1 X168.337 Y115.107 E1.13207
G1 X168.337 Y119.922 E1.24394
G1 X168.273 Y120.763 E1.26354
G1 X167.551 Y125.492 E1.37469
G1 X167.021 Y130.831 E1.49935
G1 X166.793 Y136.173 E1.62359
G1 X166.869 Y141.498 E1.74732
G1 X167.246 Y146.829 E1.8715
G1 X167.929 Y152.175 E1.99672
G1 X168.259 Y154.14 E2.04302
G1 X168.336 Y155.085 E2.06505
G1 X168.317 Y160.018 E2.17967
G1 X168.274 Y160.685 E2.1952
G1 X168.153 Y161.341 E2.2107
G1 X167.953 Y161.979 E2.22623
G1 X167.679 Y162.587 E2.24173
G1 X167.334 Y163.159 E2.25725
G1 X166.923 Y163.686 E2.27278
G1 X166.453 Y164.159 E2.28827
G1 X165.986 Y164.533 E2.30217
G1 X165.62 Y164.795 E2.31263
G1 X165.055 Y165.15 E2.32813
G1 X164.451 Y165.436 E2.34366
G1 X163.818 Y165.647 E2.35916
G1 X163.163 Y165.781 E2.3747
G1 X162.367 Y165.837 E2.39324
G1 X127.462 Y165.802 E3.20426
G1 X126.796 Y165.761 E3.21976
G1 X126.139 Y165.641 E3.23528
G1 X125.501 Y165.444 E3.25079
G1 X124.892 Y165.171 E3.2663
G1 X124.319 Y164.828 E3.28182
G1 X123.786 Y164.414 E3.2975
G1 X123.621 Y164.269 E3.3026
G1 X123.147 Y163.799 E3.31811
G1 X122.732 Y163.276 E3.33362
G1 X122.383 Y162.707 E3.34913
G1 X122.104 Y162.1 E3.36465
G1 X121.9 Y161.464 E3.38017
G1 X121.746 Y160.565 E3.40137
G1 X121.674 Y159.741 E3.42058
G1 X121.653 Y159.242 E3.43219
G1 X121.663 Y155.066 E3.52922
G1 X121.727 Y154.238 E3.54851
G1 X122.449 Y149.508 E3.65969
G1 X122.979 Y144.169 E3.78435
G1 X123.207 Y138.827 E3.90858
G1 X123.131 Y133.502 E4.03232
G1 X122.754 Y128.171 E4.1565
G1 X122.07 Y122.815 E4.28196
G1 X121.741 Y120.853 E4.32818
G1 X121.664 Y119.907 E4.35023
G1 X121.685 Y114.97 E4.46494
G1 X121.728 Y114.304 E4.48045
G1 X121.85 Y113.647 E4.49598
G1 X122.05 Y113.01 E4.51149
G1 X122.324 Y112.402 E4.52698
G1 X122.669 Y111.83 E4.54251
G1 X123.244 Y111.126 E4.56363
G1 X123.449 Y110.913 E4.57049
G1 F480 E4.07049
G0 F600 X123.726 Y111.18
G1 F480 E4.57049
G1 F600 X124.201 Y110.744 E4.58548
G1 X124.726 Y110.371 E4.60044
G1 X125.293 Y110.065 E4.61541
G1 X125.894 Y109.832 E4.63039
G1 X126.519 Y109.676 E4.64535
G1 X127.163 Y109.597 E4.66043
G1 X128.014 Y109.547 E4.68024
G1 X128.326 Y109.538 E4.68749
G1 X162.544 Y109.587 E5.48254
G1 X163.187 Y109.628 E5.49751
G1 X163.82 Y109.748 E5.51248
G1 X164.433 Y109.946 E5.52745
G1 X165.017 Y110.218 E5.54242
G1 X165.753 Y110.703 E5.5629
G1 X165.895 Y110.815 E5.5671
G1 X166.375 Y111.244 E5.58206
G1 X166.798 Y111.73 E5.59703
G1 X167.158 Y112.264 E5.61199
G1 X167.546 Y113.081 E5.63301
G1 X167.626 Y113.296 E5.63834
G1 X167.813 Y113.913 E5.65332
G1 X167.922 Y114.548 E5.66829
G1 X167.952 Y115.107 E5.6813
G1 X167.952 Y119.922 E5.79317
G1 X167.893 Y120.705 E5.81142
G1 X167.169 Y125.453 E5.92301
G1 X166.636 Y130.813 E6.04816
G1 X166.408 Y136.161 E6.17254
G1 X166.484 Y141.513 E6.2969
G1 X166.863 Y146.87 E6.42168
G1 X167.548 Y152.233 E6.54731
G1 X167.879 Y154.203 E6.59372
G1 X167.951 Y155.084 E6.61426
G1 X167.932 Y160.017 E6.72888
G1 X167.89 Y160.66 E6.74385
G1 X167.768 Y161.292 E6.75881
G1 X167.569 Y161.905 E6.77378
G1 X167.295 Y162.489 E6.78877
G1 X166.952 Y163.033 E6.80371
G1 X166.543 Y163.532 E6.8187
G1 X166.076 Y163.976 E6.83367
G1 X165.762 Y164.22 E6.84291
G1 X165.396 Y164.482 E6.85337
G1 X164.85 Y164.823 E6.86833
G1 X164.265 Y165.095 E6.88332
G1 X163.652 Y165.292 E6.89828
G1 X163.019 Y165.412 E6.91325
G1 X162.368 Y165.452 E6.9284
G1 X127.463 Y165.417 E7.73942
G1 X126.82 Y165.376 E7.75439
G1 X126.187 Y165.256 E7.76936
G1 X125.574 Y165.059 E7.78432
G1 X124.989 Y164.787 E7.79931
G1 X124.444 Y164.445 E7.81426
G1 X124.04 Y164.125 E7.82624
G1 X123.875 Y163.98 E7.83134
G1 X123.418 Y163.525 E7.84632
G1 X123.022 Y163.018 E7.86127
G1 X122.691 Y162.465 E7.87625
G1 X122.431 Y161.876 E7.89121
G1 X122.246 Y161.259 E7.90617
G1 X122.13 Y160.531 E7.9233
G1 X122.058 Y159.707 E7.94252
G1 X122.038 Y159.243 E7.95331
G1 X122.048 Y155.067 E8.05034
G1 X122.107 Y154.296 E8.06831
G1 X122.831 Y149.547 E8.17992
G1 X123.364 Y144.187 E8.30508
G1 X123.592 Y138.839 E8.42945
G1 X123.516 Y133.487 E8.55382
G1 X123.137 Y128.13 E8.6786
G1 X122.454 Y122.783 E8.80384
G1 X122.12 Y120.79 E8.8508
G1 X122.049 Y119.909 E8.87133
G1 X122.07 Y114.972 E8.98605
G1 X122.113 Y114.329 E9.00102
G1 X122.235 Y113.697 E9.01597
G1 X122.434 Y113.084 E9.03095
G1 X122.708 Y112.501 E9.04592
G1 X123.052 Y111.956 E9.06089
G1 X123.521 Y111.393 E9.07792
G1 X123.726 Y111.18 E9.08479
G1 F480 E8.58479
G0 F600 X127.518 Y114.955
;TYPE:WALL-OUTER
G1 F480 E9.08479
G1 F300 X127.549 Y114.939 E9.0856
G1 X127.62 Y114.923 E9.08729
G1 X162.404 Y114.925 E9.89549
G1 X162.444 Y114.936 E9.89646
G1 X162.516 Y114.98 E9.89842
G1 X162.562 Y115.046 E9.90029
G1 X162.577 Y115.118 E9.90199
G1 X162.574 Y119.927 E10.01373
G1 X162.55 Y119.99 E10.0153
G1 X162.088 Y120.829 E10.03755
G1 X161.773 Y121.431 E10.05334
G1 X161.47 Y122.038 E10.0691
G1 X161.179 Y122.65 E10.08485
G1 X160.899 Y123.269 E10.10063
G1 X160.632 Y123.892 E10.11638
G1 X160.376 Y124.52 E10.13214
G1 X160.133 Y125.154 E10.14791
G1 X159.901 Y125.792 E10.16369
G1 X159.683 Y126.434 E10.17944
G1 X159.477 Y127.08 E10.1952
G1 X159.282 Y127.731 E10.21099
G1 X159.1 Y128.384 E10.22674
G1 X158.932 Y129.042 E10.24252
G1 X158.776 Y129.702 E10.25827
G1 X158.632 Y130.365 E10.27404
G1 X158.5 Y131.031 E10.28981
G1 X158.383 Y131.7 E10.30559
G1 X158.278 Y132.369 E10.32133
G1 X158.186 Y133.042 E10.33711
G1 X158.106 Y133.716 E10.35288
G1 X158.041 Y134.391 E10.36864
G1 X157.986 Y135.067 E10.3844
G1 X157.947 Y135.745 E10.40017
G1 X157.92 Y136.422 E10.41592
G1 X157.905 Y137.101 E10.4317
G1 X157.905 Y137.78 E10.44747
G1 X157.916 Y138.458 E10.46323
G1 X157.941 Y139.136 E10.47899
G1 X157.979 Y139.814 E10.49477
G1 X158.03 Y140.49 E10.51052
G1 X158.094 Y141.165 E10.52628
G1 X158.17 Y141.84 E10.54206
G1 X158.261 Y142.511 E10.55779
G1 X158.363 Y143.183 E10.57359
G1 X158.479 Y143.851 E10.58934
G1 X158.608 Y144.517 E10.6051
G1 X158.75 Y145.181 E10.62088
G1 X158.903 Y145.841 E10.63662
G1 X159.069 Y146.5 E10.65241
G1 X159.249 Y147.154 E10.66817
G1 X159.44 Y147.805 E10.68393
G1 X159.645 Y148.453 E10.69973
G1 X159.862 Y149.095 E10.71547
G1 X160.091 Y149.734 E10.73124
G1 X160.332 Y150.367 E10.74698
G1 X160.586 Y150.996 E10.76274
G1 X160.851 Y151.622 E10.77854
G1 X161.129 Y152.24 E10.79428
G1 X161.418 Y152.854 E10.81005
G1 X161.719 Y153.463 E10.82583
G1 X162.032 Y154.066 E10.84162
G1 X162.568 Y155.048 E10.86761
G1 X162.576 Y155.085 E10.86849
G1 X162.577 Y159.885 E10.98002
G1 X162.554 Y159.968 E10.98202
G1 X162.532 Y160.001 E10.98294
G1 X162.482 Y160.045 E10.98449
G1 X162.451 Y160.061 E10.9853
G1 X162.38 Y160.077 E10.98699
G1 X127.596 Y160.075 E11.7952
G1 X127.556 Y160.064 E11.79616
G1 X127.483 Y160.019 E11.79815
G1 X127.438 Y159.954 E11.79999
G1 X127.423 Y159.882 E11.8017
G1 X127.425 Y155.076 E11.91337
G1 X127.452 Y155.004 E11.91515
G1 X127.912 Y154.171 E11.93726
G1 X128.227 Y153.569 E11.95305
G1 X128.53 Y152.962 E11.96881
G1 X128.821 Y152.35 E11.98456
G1 X129.101 Y151.731 E12.00034
G1 X129.368 Y151.108 E12.01609
G1 X129.624 Y150.48 E12.03185
G1 X129.867 Y149.846 E12.04763
G1 X130.099 Y149.208 E12.0634
G1 X130.317 Y148.566 E12.07915
G1 X130.523 Y147.92 E12.09491
G1 X130.718 Y147.269 E12.1107
G1 X130.9 Y146.616 E12.12645
G1 X131.068 Y145.958 E12.14223
G1 X131.224 Y145.298 E12.15798
G1 X131.368 Y144.635 E12.17375
G1 X131.5 Y143.969 E12.18952
G1 X131.617 Y143.3 E12.2053
G1 X131.722 Y142.631 E12.22104
G1 X131.814 Y141.958 E12.23682
G1 X131.894 Y141.284 E12.25259
G1 X131.959 Y140.609 E12.26835
G1 X132.014 Y139.933 E12.28411
G1 X132.053 Y139.255 E12.29989
G1 X132.08 Y138.578 E12.31563
G1 X132.095 Y137.899 E12.33141
G1 X132.095 Y137.22 E12.34719
G1 X132.084 Y136.542 E12.36294
G1 X132.059 Y135.864 E12.3787
G1 X132.021 Y135.186 E12.39448
G1 X131.97 Y134.51 E12.41023
G1 X131.906 Y133.835 E12.42599
G1 X131.83 Y133.16 E12.44177
G1 X131.739 Y132.489 E12.4575
G1 X131.637 Y131.817 E12.4733
G1 X131.521 Y131.149 E12.48905
G1 X131.392 Y130.483 E12.50481
G1 X131.25 Y129.819 E12.52059
G1 X131.097 Y129.159 E12.53633
G1 X130.931 Y128.5 E12.55212
G1 X130.751 Y127.846 E12.56788
G1 X130.56 Y127.195 E12.58365
G1 X130.355 Y126.547 E12.59944
G1 X130.138 Y125.905 E12.61518
G1 X129.909 Y125.266 E12.63095
G1 X129.668 Y124.633 E12.64669
G1 X129.414 Y124.004 E12.66245
G1 X129.149 Y123.378 E12.67825
G1 X128.871 Y122.76 E12.69399
G1 X128.582 Y122.146 E12.70976
G1 X128.281 Y121.537 E12.72555
G1 X127.968 Y120.934 E12.74133
G1 X127.449 Y119.992 E12.76632
G1 X127.424 Y119.915 E12.7682
G1 X127.423 Y115.115 E12.87973
G1 X127.446 Y115.032 E12.88173
G1 X127.468 Y114.999 E12.88265
G1 X127.518 Y114.955 E12.8842
G0 F600 X127.549 Y114.939
G0 X127.62 Y114.923
G0 X127.764 Y114.923
G1 F480 E12.3842
G0 F600 X134.803 Y124.053
G1 F480 E12.8842
G1 F300 X134.803 Y128.447 E12.98629
G1 X155.197 Y128.447 E13.46015
G1 X155.197 Y124.053 E13.56224
G1 X134.803 Y124.053 E14.0361
G0 F600 X134.803 Y124.303
G1 F480 E13.5361
G0 F600 X136.303 Y146.553
G1 F480 E14.0361
G1 F300 X136.303 Y150.947 E14.13819
G1 X153.697 Y150.947 E14.54234
G1 X153.697 Y146.553 E14.64443
G1 X136.303 Y146.553 E15.04858
G0 F600 X136.303 Y146.803
G1 F480 E14.54858
G0 F600 X135.919 Y146.169
;TYPE:WALL-INNER
G1 F480 E15.04858
G1 F300 X135.919 Y151.331 E15.16852
G1 X154.081 Y151.331 E15.59051
G1 X154.081 Y146.169 E15.71045
G1 X135.919 Y146.169 E16.13245
G1 F480 E15.63245
G0 F600 X131.599 Y145.383
G1 F480 E16.13245
G1 F300 X131.744 Y144.713 E16.14837
G1 X131.878 Y144.039 E16.16434
G1 X131.996 Y143.363 E16.18029
G1 X132.102 Y142.687 E16.19618
G1 X132.195 Y142.007 E16.21213
G1 X132.276 Y141.325 E16.22809
G1 X132.342 Y140.643 E16.24401
G1 X132.397 Y139.96 E16.25993
G1 X132.437 Y139.274 E16.2759
G1 X132.464 Y138.59 E16.2918
G1 X132.479 Y137.903 E16.30777
G1 X132.479 Y137.217 E16.32371
G1 X132.468 Y136.532 E16.33962
G1 X132.443 Y135.846 E16.35557
G1 X132.404 Y135.161 E16.37152
G1 X132.353 Y134.477 E16.38745
G1 X132.288 Y133.795 E16.40337
G1 X132.211 Y133.113 E16.41932
G1 X132.119 Y132.434 E16.43524
G1 X132.016 Y131.755 E16.4512
G1 X131.899 Y131.08 E16.46711
G1 X131.768 Y130.406 E16.48307
G1 X131.625 Y129.735 E16.49901
G1 X131.47 Y129.069 E16.51489
G1 X131.302 Y128.402 E16.53088
G1 X131.12 Y127.741 E16.54681
G1 X130.927 Y127.083 E16.56274
G1 X130.72 Y126.428 E16.5787
G1 X130.501 Y125.779 E16.59461
G1 X130.269 Y125.133 E16.61056
G1 X130.026 Y124.493 E16.62647
G1 X129.769 Y123.857 E16.64241
G1 X129.501 Y123.224 E16.65838
G1 X129.22 Y122.599 E16.6743
G1 X128.928 Y121.979 E16.69022
G1 X128.624 Y121.363 E16.70619
G1 X128.307 Y120.753 E16.72216
G1 X127.808 Y119.849 E16.74615
G1 X127.807 Y115.307 E16.85168
G1 X162.193 Y115.309 E17.65064
G1 X162.19 Y119.848 E17.7561
G1 X161.75 Y120.647 E17.7773
G1 X161.431 Y121.256 E17.79327
G1 X161.125 Y121.87 E17.80921
G1 X160.831 Y122.488 E17.82511
G1 X160.548 Y123.114 E17.84107
G1 X160.278 Y123.744 E17.857
G1 X160.019 Y124.379 E17.87293
G1 X159.773 Y125.02 E17.88889
G1 X159.539 Y125.665 E17.90483
G1 X159.318 Y126.314 E17.92076
G1 X159.11 Y126.967 E17.93668
G1 X158.913 Y127.624 E17.95262
G1 X158.729 Y128.285 E17.96856
G1 X158.559 Y128.95 E17.98451
G1 X158.401 Y129.617 E18.00044
G1 X158.256 Y130.287 E18.01636
G1 X158.122 Y130.961 E18.03233
G1 X158.004 Y131.637 E18.04828
G1 X157.898 Y132.313 E18.06417
G1 X157.805 Y132.993 E18.08012
G1 X157.724 Y133.675 E18.09608
G1 X157.658 Y134.357 E18.112
G1 X157.603 Y135.04 E18.12792
G1 X157.563 Y135.726 E18.14389
G1 X157.536 Y136.41 E18.15979
G1 X157.521 Y137.097 E18.17576
G1 X157.521 Y137.783 E18.1917
G1 X157.532 Y138.468 E18.20762
G1 X157.557 Y139.154 E18.22356
G1 X157.596 Y139.839 E18.23951
G1 X157.647 Y140.523 E18.25544
G1 X157.712 Y141.205 E18.27136
G1 X157.789 Y141.887 E18.28731
G1 X157.881 Y142.566 E18.30323
G1 X157.984 Y143.245 E18.31919
G1 X158.101 Y143.92 E18.3351
G1 X158.232 Y144.594 E18.35106
G1 X158.375 Y145.265 E18.367
G1 X158.53 Y145.931 E18.38289
G1 X158.698 Y146.598 E18.39887
G1 X158.88 Y147.259 E18.4148
G1 X159.073 Y147.917 E18.43073
G1 X159.28 Y148.572 E18.44669
G1 X159.499 Y149.221 E18.46261
G1 X159.731 Y149.867 E18.47855
G1 X159.974 Y150.507 E18.49446
G1 X160.231 Y151.143 E18.5104
G1 X160.499 Y151.776 E18.52637
G1 X160.78 Y152.401 E18.54229
G1 X161.072 Y153.021 E18.55822
G1 X161.376 Y153.637 E18.57418
G1 X161.693 Y154.246 E18.59013
G1 X162.192 Y155.161 E18.61434
G1 X162.193 Y159.693 E18.71965
G1 X127.807 Y159.691 E19.5186
G1 X127.809 Y155.152 E19.62407
G1 X128.25 Y154.353 E19.64527
G1 X128.569 Y153.744 E19.66124
G1 X128.875 Y153.13 E19.67718
G1 X129.169 Y152.512 E19.69309
G1 X129.452 Y151.886 E19.70905
G1 X129.722 Y151.256 E19.72497
G1 X129.981 Y150.621 E19.74091
G1 X130.227 Y149.98 E19.75686
G1 X130.461 Y149.335 E19.7728
G1 X130.682 Y148.686 E19.78873
G1 X130.89 Y148.033 E19.80466
G1 X131.087 Y147.376 E19.82059
G1 X131.271 Y146.715 E19.83654
G1 X131.441 Y146.05 E19.85248
G1 X131.599 Y145.383 E19.86841
G1 F480 E19.36841
G0 F600 X134.419 Y128.831
G1 F480 E19.86841
G1 F300 X155.581 Y128.831 E20.36011
G1 X155.581 Y123.669 E20.48005
G1 X134.419 Y123.669 E20.97175
G1 X134.419 Y128.831 E21.09168
G1 F480 E20.59168
G0 F600 X134.034 Y129.216
G1 F480 E21.09168
G1 F300 X155.966 Y129.216 E21.60127
G1 X155.966 Y123.284 E21.7391
G1 X134.034 Y123.284 E22.24869
G1 X134.034 Y129.216 E22.38652
G1 F480 E21.88652
G0 F600 X132.001 Y129.651
G1 F480 E22.38652
G1 F300 X131.844 Y128.978 E22.40258
G1 X131.674 Y128.304 E22.41873
G1 X131.49 Y127.636 E22.43483
G1 X131.295 Y126.971 E22.45093
G1 X131.086 Y126.308 E22.46708
G1 X130.865 Y125.652 E22.48317
G1 X130.63 Y125 E22.49927
G1 X130.384 Y124.353 E22.51535
G1 X130.125 Y123.71 E22.53146
G1 X129.854 Y123.07 E22.54761
G1 X129.57 Y122.438 E22.56371
G1 X129.275 Y121.812 E22.57979
G1 X128.967 Y121.189 E22.59593
G1 X128.646 Y120.571 E22.61211
G1 X128.193 Y119.75 E22.6339
G1 X128.192 Y115.692 E22.72819
G1 X161.808 Y115.694 E23.50926
G1 X161.805 Y119.749 E23.60347
G1 X161.411 Y120.465 E23.62246
G1 X161.088 Y121.081 E23.63862
G1 X160.779 Y121.701 E23.65472
G1 X160.482 Y122.326 E23.6708
G1 X160.196 Y122.959 E23.68694
G1 X159.923 Y123.595 E23.70302
G1 X159.661 Y124.237 E23.71913
G1 X159.412 Y124.885 E23.73526
G1 X159.176 Y125.537 E23.75137
G1 X158.952 Y126.194 E23.7675
G1 X158.742 Y126.853 E23.78357
G1 X158.543 Y127.517 E23.79967
